!!!OTL: Quartett in C für 2 Violinen, Viola und Violoncello, 1. Satz, KV 465/01
!!!system-decoration: [(s1,s2,s3,s4)]
**kern	**kern	**kern	**kern	**dynam	**kern	**kern	**kern	**kern	**dynam	**kern	**kern	**kern	**kern	**dynam	**kern	**kern	**kern	**kern	**dynam
*part4	*part4	*part4	*part4	*part4	*part3	*part3	*part3	*part3	*part3	*part2	*part2	*part2	*part2	*part2	*part1	*part1	*part1	*part1	*part1
*staff16	*staff15	*staff14	*staff13	*	*staff12	*staff11	*staff10	*staff9	*	*staff8	*staff7	*staff6	*staff5	*	*staff4	*staff3	*staff2	*staff1	*
*I"Violoncello	*	*	*	*	*I"Viola	*	*	*	*	*I"Violino II	*	*	*	*	*I"Violino I	*	*	*	*
*clefF4	*	*clefC3	*	*clefG2	*	*clefG2	*
*M3/4	*	*M3/4	*	*M3/4	*	*M3/4	*
8CL	.	4r	.	2.r	.	2.r	.
8C	.	.	.	.	.	.	.
8C	.	4r	.	.	.	.	.
8C	.	.	.	.	.	.	.
8C	.	[4A-	.	.	.	.	.
8CJ	.	.	.	.	.	.	.
=2	=2	=2	=2	=2	=2	=2	=2
8CL	.	(4A-y_	.	(2e-	.	4r	.
8C	.	.	.	.	.	.	.
8C	.	4G	.	.	.	[2aa	.
8C	.	.	.	.	.	.	.
8C	.	4F#)	.	4d	.	.	.
8CJ	.	.	.	.	.	.	.
=3	=3	=3	=3	=3	=3	=3	=3
8BBL	cresc.	(4.G	cresc.	4c#	cresc.	(4aa_	cresc.
8BB	.	.	.	.	.	.	.
8BB	.	.	.	4.d)	.	4gg	.
8BB	.	8AnL	.	.	.	.	.
8BB	.	8B	.	.	.	4ff#)	.
8BBJ	.	8cJ)	.	(8a	.	.	.
=4	=4	=4	=4	=4	=4	=4	=4
8BBL	.	(8dL	.	8bL	.	(4.gg	.
8BB	.	8aJ)	.	8ccJ	.	.	.
8BB	.	8b	.	8dd)	.	.	.
(8FF#	.	8r	.	8r	.	8aaL	.
8GG	.	4r	.	4r	.	8bb-	.
8AAJ)	.	.	.	.	.	8cccJ)	.
=5	=5	=5	=5	=5	=5	=5	=5
8BB-L	.	4r	.	2.r	.	4ddd-	.
8BB-y	.	.	.	.	.	.	.
8BB-y	.	4r	.	.	.	4r	.
8BB-y	.	.	.	.	.	.	.
8BB-y	.	[4G-	.	.	.	4r	.
8BB-yJ	.	.	.	.	.	.	.
!!LO:LB
=6	=6	=6	=6	=6	=6	=6	=6
8BBL	.	(4G-y_	.	(2d-	.	4r	.
8BB-y	.	.	.	.	.	.	.
8BB-y	.	4Fn	.	.	.	[2gg	.
8BB-y	.	.	.	.	.	.	.
8BB-y	.	4E)	.	4c	.	.	.
8BB-yJ	.	.	.	.	.	.	.
=7	=7	=7	=7	=7	=7	=7	=7
8AAL	cresc.	(4.F	cresc.	4B	cresc.	(4gg_	cresc.
8AA	.	.	.	.	.	.	.
8AA	.	.	.	4.c)	.	4ff	.
8AA	.	8GnL	.	.	.	.	.
8AA	.	8A	.	.	.	4ee)	.
8AAJ	.	8B-J)	.	(8g	.	.	.
=8	=8	=8	=8	=8	=8	=8	=8
8AAL	.	(8cL	.	8aL	.	(4.ff	.
8AA	.	8gJ)	.	8b-J	.	.	.
8AA	.	8a	.	8cc)	.	.	.
(8EE	.	8r	.	8r	.	8ggL	.
8FF	.	4r	.	4r	.	8aa-	.
8GGJ)	.	.	.	.	.	8bb-J)	.
=9	=9	=9	=9	=9	=9	=9	=9
8AA-L	.	8r	.	4r	.	4ccc	.
8AA-y	.	(8EL	.	.	.	.	.
8AA-y	.	8F	.	[2f	.	4r	.
8AA-y	.	8G	.	.	.	.	.
8AA-y	.	8A-	.	.	.	4r	.
8AA-yJ	.	8AnJ)	.	.	.	.	.
=10	=10	=10	=10	=10	=10	=10	=10
8GGL	.	4.B-	.	(8fL_	.	2.r	.
8GG	.	.	.	8dJ	.	.	.
8GG	.	.	.	2e-)	.	.	.
8GG	.	(8E-L	.	.	.	.	.
8GG	.	8F	.	.	.	.	.
8GGJ	.	8GJ)	.	.	.	.	.
=11	=11	=11	=11	=11	=11	=11	=11
8FFL	.	2.A-	.	(8e-yL_	.	8r	.
8FF	.	.	.	16f	.	(8ccL	.
.	.	.	.	16eJ	.	.	.
8FF	.	.	.	2d)	.	8dd	.
8FF	.	.	.	.	.	8ee-	.
8FF	.	.	.	.	.	8ff	.
8FFJ	.	.	.	.	.	8ff#J)	.
!!LO:LB
=12	=12	=12	=12	=12	=12	=12	=12
2EE-	.	8GL	cresc.	(8dL_	cresc.	4.gg	cresc.
.	.	(8g	.	8BJ	.	.	.
.	.	8f	.	4c)	.	.	.
.	.	8e-	.	.	.	(8ccL	.
4r	.	8d	.	[4cc	.	8dd	.
.	.	8cJ)	.	.	.	8ee-J)	.
=13	=13	=13	=13	=13	=13	=13	=13
8r	.	4.d	.	(8ccL_	.	2.ff	.
(8GGL	.	.	.	8b	.	.	.
8AA-	.	.	.	8cc	.	.	.
8AAn	.	8G	.	8cc#J)	.	.	.
8BB-	.	[4g	.	[4dd	.	.	.
8BBnJ)	.	.	.	.	.	.	.
=14	=14	=14	=14	=14	=14	=14	=14
4.C	.	4g]	.	(8ddL_	.	(4een	.
.	.	.	.	8ccn	.	.	.
.	.	4r	.	8b-	.	4ee-	.
(8cL	.	.	.	8a	.	.	.
8B	.	8r	.	8a-	.	4dd)	.
8B-J)	.	8B-	.	8gJ)	.	.	.
=15	=15	=15	=15	=15	=15	=15	=15
(4A	.	(8cL	.	2g	.	4.cc	.
.	.	8d	.	.	.	.	.
2A-)	.	8e-	.	.	.	.	.
.	.	8en	.	.	.	(16ddL	.
.	.	.	.	.	.	16ccJ	.
.	.	8f	.	(8fL	.	16bL	.
.	.	.	.	.	.	16cc	.
.	.	8f#J)	.	8cJ)	.	16dd	.
.	.	.	.	.	.	16ccJ)	.
=16	=16	=16	=16	=16	=16	=16	=16
8GL	.	4g	.	4d	.	4b	.
(8f#J	.	.	.	.	.	.	.
4g)	.	4r	.	8r	.	8r	.
.	.	.	.	(8bL	.	(8ddL	.
4r	.	8r	.	8cc	.	8ee-	.
.	.	(8f#	.	8e-J)	.	8ccJ)	.
!!LO:LB
=17	=17	=17	=17	=17	=17	=17	=17
8r	.	4g)	.	4d	.	4b	.
(8F#	.	.	.	.	.	.	.
4G)	.	4r	.	8r	.	8r	.
.	.	.	.	(8fL	.	(8ddL	.
4r	.	8r	.	8e-	.	8cc	.
.	.	(8F#	.	8cJ)	.	8aJ)	.
=18	=18	=18	=18	=18	=18	=18	=18
8r	.	4G)	.	4B	.	4g	.
(8FF#	.	.	.	.	.	.	.
4GG)	.	8r	.	8r	.	8r	.
.	.	(8FnL	.	(8BL	.	(8dL	.
4r	.	8E-	.	8c	.	8e-	.
.	.	8F#J)	.	8AJ)	.	8cJ)	.
=19	=19	=19	=19	=19	=19	=19	=19
8r	.	(4.G	.	4.G	.	4.B	.
(8GGL	.	.	.	.	.	.	.
8BB	.	.	.	.	.	.	.
8C#	.	8En	.	(8G'L	.	(8B'L	.
8D	.	4F)	.	8G'	.	8B'	.
8BBJ)	.	.	.	8GJ)	.	8BJ)	.
=20	=20	=20	=20	=20	=20	=20	=20
8r	.	(4.F_	.	(8GL	.	(8BL	.
(8GGL	.	.	.	8A#J)	.	8c#J)	.
8BB	.	.	.	4.B	.	4.d	.
8C#	.	8E	.	.	.	.	.
8D	.	4F)	.	.	.	.	.
8BBJ)	.	.	.	8B	.	8d	.
=21	=21	=21	=21	=21	=21	=21	=21
8r	.	(4.F_	.	(8BL	.	(8dL	.
(8GGL	.	.	.	8c#J)	.	8eJ)	.
8BB	.	.	.	4.d	.	4.f	.
8C#	.	8A#L	.	.	.	.	.
8D	.	8B	.	.	.	.	.
8BBJ)	.	8GJ)	.	8f	.	8dd	.
=22	=22	=22	=22	=22	=22	=22	=22
2.GG;	.	2.d;	.	2.f;	.	4cc;	.
.	.	.	.	.	.	(<32qbL	.
.	.	.	.	.	.	32qcc	.
.	.	.	.	.	.	32qdd	.
.	.	.	.	.	.	32qccJ)	.
.	.	.	.	.	.	2b;	.
=23	=23	=23	=23	=23	=23	=23	=23
1r	.	8cL	.	8eL	.	[2cc	.
.	.	8c	.	8e	.	.	.
.	.	8c	.	8e	.	.	.
.	.	8cJ	.	8eJ	.	.	.
.	.	8cL	.	8eL	.	8ccL]	.
.	.	8c	.	(8e	.	(8cc	.
.	.	8c	.	8f	.	8dd	.
.	.	8cJ	.	8gJ)	.	8eeJ)	.
=24	=24	=24	=24	=24	=24	=24	=24
1r	.	8cL	.	8aL	.	(2gg	.
.	.	8c	.	8a	.	.	.
.	.	8c	.	8a	.	.	.
.	.	8cJ	.	8aJ	.	.	.
.	.	8cL	.	8aL	.	4ff)	.
.	.	8c	.	8a	.	.	.
.	.	8c	.	8a	.	4r	.
.	.	8cJ	.	8aJ	.	.	.
=25	=25	=25	=25	=25	=25	=25	=25
1r	.	8BL	.	8gL	.	[2dd	.
.	.	8B	.	8g	.	.	.
.	.	8A	.	8cc	.	.	.
.	.	8AJ	.	8ccJ	.	.	.
.	.	8GL	.	8bL	.	8ddL]	.
.	.	8G	.	8b	.	(8dd	.
.	.	8F	.	8b	.	8ee	.
.	.	8FJ	.	8bJ	.	8ffJ)	.
=26	=26	=26	=26	=26	=26	=26	=26
1r	.	8EL	.	8bL	.	(2aa	.
.	.	8E	.	(8b	.	.	.
.	.	8E	.	8cc	.	.	.
.	.	8EJ	.	8bJ)	.	.	.
.	.	8eL	.	8ccL	.	4gg)	.
.	.	8e	.	8g	.	.	.
.	.	8B	.	8dd	.	4r	.
.	.	8BJ	.	8gJ	.	.	.
=27	=27	=27	=27	=27	=27	=27	=27
1r	.	8cL	.	8eeL	.	[2gg	.
.	.	8c	.	8ee	.	.	.
.	.	8c	.	8ee	.	.	.
.	.	8cJ	.	8eeJ	.	.	.
.	.	8ccL	.	8eeL	.	8ggL]	.
.	.	8cc	.	8ee	.	8gg'	.
.	.	8b	.	8dd	.	8aa'	.
.	.	8bJ	.	8ddJ	.	8bb'J	.
=28	=28	=28	=28	=28	=28	=28	=28
1r	.	(8aL	.	(8ccL	.	(8cccL	.
.	.	8g#	.	8b	.	8eeJ)	.
.	.	8a	.	8cc	.	4.ff	.
.	.	8g#yJ)	.	8bJ)	.	.	.
.	.	8aL	.	8ccL	.	.	.
.	.	8a	.	8cc	.	8ee'L	.
.	.	8gn	.	8b-	.	8ff'	.
.	.	8gJ	.	8b-yJ	.	8gg'J	.
!!LO:LB
=29	=29	=29	=29	=29	=29	=29	=29
1r	.	8fL	.	8aL	.	(8aaL	.
.	.	8f	.	8a	.	8cc#)	.
.	.	8e	.	8g	.	8dd	.
.	.	8eJ	.	8gJ	.	8eeJ	.
.	.	8dL	.	8fL	.	(8ffL	.
.	.	8d	.	8f	.	8a)	.
.	.	8F#	.	8a	.	8dd	.
.	.	8F#yJ	.	8aJ	.	8ccJ	.
=30	=30	=30	=30	=30	=30	=30	=30
1r	.	2G	.	(4d	.	(8ccL	.
.	.	.	.	.	.	8b)	.
.	.	.	.	4B)	.	8a	.
.	.	.	.	.	.	8gJ	.
.	.	2r	.	2r	.	(8f#L	.
.	.	.	.	.	.	8g	.
.	.	.	.	.	.	8fn	.
.	.	.	.	.	.	8dJ)	.
=31	=31	=31	=31	=31	=31	=31	=31
8r	.	(8EL	.	[2c	.	[2c	.
8CCL	.	8G	.	.	.	.	.
8EE	.	8c	.	.	.	.	.
8GGJ	.	8GJ)	.	.	.	.	.
4C	.	4E	.	8cL]	.	8cL]	.
.	.	.	.	(8c	.	(8c	.
4r	.	4r	.	8B	.	8d	.
.	.	.	.	8cJ)	.	8eJ)	.
=32	=32	=32	=32	=32	=32	=32	=32
8r	.	2r	.	(2e	.	(2g	.
8GL	.	.	.	.	.	.	.
8G	.	.	.	.	.	.	.
8GJ	.	.	.	.	.	.	.
(8F#L	.	8r	.	4d)	.	4f)	.
8G)	.	8gL	.	.	.	.	.
8D	.	8g	.	4r	.	4r	.
8BBJ	.	8gJ	.	.	.	.	.
=33	=33	=33	=33	=33	=33	=33	=33
8GGL	.	(8f#L	.	[2B	.	[2d	.
8GG	.	8g)	.	.	.	.	.
8BB	.	8d	.	.	.	.	.
8DJ	.	8BJ	.	.	.	.	.
4G	.	4G	.	8BL]	.	8dL]	.
.	.	.	.	(8B	.	(8d	.
4r	.	4r	.	8c	.	8e	.
.	.	.	.	8dJ)	.	8fJ)	.
=34	=34	=34	=34	=34	=34	=34	=34
8r	.	2r	.	(2f	.	(2a	.
8cL	.	.	.	.	.	.	.
8c	.	.	.	.	.	.	.
8cJ	.	.	.	.	.	.	.
(8BL	.	8r	.	4e)	.	4g)	.
8c)	.	8ccL	.	.	.	.	.
8G	.	8cc	.	4r	.	4r	.
8EJ	.	8ccJ	.	.	.	.	.
!!LO:LB
=35	=35	=35	=35	=35	=35	=35	=35
4C	.	(8bL	.	[2ee	.	[2gg	.
.	.	8cc)	.	.	.	.	.
4r	.	8g	.	.	.	.	.
.	.	8eJ	.	.	.	.	.
2B-	.	[2c	.	8eeL_	.	8ggL_	.
.	.	.	.	(8cc	.	(8ee	.
.	.	.	.	8dd	.	8ff	.
.	.	.	.	8eeJ)	.	8ggJ)	.
=36	=36	=36	=36	=36	=36	=36	=36
(8AL	.	2c_	.	(8ffL	.	(8aaL	.
8F	.	.	.	8aa	.	8ccc	.
8G	.	.	.	8gg	.	8bb-	.
8AJ)	.	.	.	8ffJ	.	8aaJ	.
2B-	.	[2c	.	8eeL	.	8ggL	.
.	.	.	.	8cc	.	8ee	.
.	.	.	.	8dd	.	8ff	.
.	.	.	.	8eeJ)	.	8ggJ)	.
=37	=37	=37	=37	=37	=37	=37	=37
(8AL	.	2c_	.	(8ffL	.	(8aaL	.
8F	.	.	.	8aa	.	8ccc	.
8G	.	.	.	8gg	.	8bb-	.
8AJ)	.	.	.	8ffJ	.	8aaJ	.
2B-	.	2c	.	8eeL	.	8ggL	.
.	.	.	.	8cc	.	8ee	.
.	.	.	.	8dd	.	8ff	.
.	.	.	.	8eeJ)	.	8ggJ)	.
=38	=38	=38	=38	=38	=38	=38	=38
4A	.	(8c#L	.	(8eeL	.	(4aa	.
.	.	8e)	.	8g)	.	.	.
4r	.	8e'	.	8g'	.	2cc#	.
.	.	8e'J	.	8g'J	.	.	.
4D	.	(8eL	.	(8gL	.	.	.
.	.	8d)	.	8f#)	.	.	.
4r	.	8d	.	8f#y'	.	4dd)	.
.	.	8dJ	.	8f#y'J	.	.	.
=39	=39	=39	=39	=39	=39	=39	=39
4G	.	(8dL	.	(8fnL	.	4r	.
.	.	8dd)	.	8ff)	.	.	.
4r	.	8dd	.	8ff'	.	(2bb	.
.	.	8ddJ	.	8ff'J	.	.	.
4A	.	(8ddL	.	(8ffL	.	.	.
.	.	8cc)	.	8ee)	.	.	.
4r	.	8cc	.	8ee	.	4ccc)	.
.	.	8ccJ	.	8eeJ	.	.	.
=40	=40	=40	=40	=40	=40	=40	=40
4F	.	4f	.	4dd	.	8r	.
.	.	.	.	.	.	(8aaL	.
4r	.	4r	.	4r	.	8ff	.
.	.	.	.	.	.	8ddJ)	.
4G	.	4d	.	4f	.	8r	.
.	.	.	.	.	.	(8ffL	.
4r	.	4r	.	4r	.	8dd	.
.	.	.	.	.	.	8bJ)	.
!!LO:LB
=41	=41	=41	=41	=41	=41	=41	=41
4E	.	4c	.	4g	.	8r	.
.	.	.	.	.	.	8ccL	.
4r	.	4r	.	4r	.	(8cc	.
.	.	.	.	.	.	8eeJ)	.
4C	.	4e	.	4cc	.	8r	.
.	.	.	.	.	.	8ggL	.
4r	.	4r	.	4r	.	(8gg	.
.	.	.	.	.	.	8cccJ)	.
=42	=42	=42	=42	=42	=42	=42	=42
4F	.	4f	.	4dd	.	8r	.
.	.	.	.	.	.	(8aaL	.
4r	.	4r	.	4r	.	8ff	.
.	.	.	.	.	.	8ddJ)	.
4G	.	4d	.	4f	.	8r	.
.	.	.	.	.	.	(8ffL	.
4r	.	4r	.	4r	.	8dd	.
.	.	.	.	.	.	8bJ)	.
=43	=43	=43	=43	=43	=43	=43	=43
1C	.	4c	.	4e	.	(8ccL	.
.	.	.	.	.	.	8gJ)	.
.	.	(4E	.	(2e	.	(4.g	.
.	.	4G	.	.	.	.	.
.	.	.	.	.	.	8g#L	.
.	.	4B)	.	8fL	.	8a	.
.	.	.	.	8dJ)	.	8fJ)	.
=44	=44	=44	=44	=44	=44	=44	=44
[2CC	.	(2B	.	(2d	.	(2f	.
8CCL]	.	4c)	.	4c)	.	4e)	.
(8CC	.	.	.	.	.	.	.
8DD	.	4r	.	4r	.	4r	.
8EEJ)	.	.	.	.	.	.	.
=45	=45	=45	=45	=45	=45	=45	=45
(2GG	.	[2G	.	1r	.	1r	.
2FF)	.	8GL]	.	.	.	.	.
.	.	(8G	.	.	.	.	.
.	.	8A	.	.	.	.	.
.	.	8BJ)	.	.	.	.	.
=46	=46	=46	=46	=46	=46	=46	=46
8EEL	.	(4d	.	[2g	.	1r	.
8E	.	.	.	.	.	.	.
8E	.	8.cLT)	.	.	.	.	.
8EJ	.	.	.	.	.	.	.
.	.	16BJ	.	.	.	.	.
8EL	.	(4c	.	8gL]	.	.	.
8E	.	.	.	(8g	.	.	.
8D	.	4f)	.	8a	.	.	.
8DJ	.	.	.	8bJ)	.	.	.
=47	=47	=47	=47	=47	=47	=47	=47
8CL	cresc.	(4.e	cresc.	(4dd	cresc.	[2ee	cresc.
8C	.	.	.	.	.	.	.
8C	.	.	.	2cc)	.	.	.
8BBJ	.	8d)	.	.	.	.	.
8AAL	.	(4.c	.	.	.	8eeL]	.
8AA	.	.	.	.	.	(8ee	.
8A	.	.	.	4cc	.	8ff#	.
8GJ	.	8B)	.	.	.	8ggJ)	.
=48	=48	=48	=48	=48	=48	=48	=48
8F#L	.	[2A	.	[4cc	.	(4bb	.
8F#y	.	.	.	.	.	.	.
8F#y	.	.	.	(16ccL_	.	4aa)	.
.	.	.	.	16b	.	.	.
8EJ	.	.	.	16a	.	.	.
.	.	.	.	16gJ	.	.	.
8DL	.	8AL]	.	8f#L)	.	8aaL]	.
8D	.	8DJ	.	(8f#y	.	(8aa	.
8D	.	[4d	.	8g	.	8bb	.
8CJ	.	.	.	8aJ)	.	8cccJ)	.
=49	=49	=49	=49	=49	=49	=49	=49
(8BBL	.	2d_	.	4b	.	(8dddL	.
8D	.	.	.	.	.	8bbJ)	.
8G	.	.	.	(8ddL	.	4.gg	.
8BJ	.	.	.	8bJ)	.	.	.
8dL)	.	8dL]	.	8gL	.	.	.
8c'	.	8dJ	.	8f#'	.	8aa'L	.
8B'	.	[4dd	.	8g'	.	8bb'	.
8A'J	.	.	.	8a'J	.	8ccc'J	.
=50	=50	=50	=50	=50	=50	=50	=50
(8GL	.	4dd]	.	(8bL	.	(16dddL	.
.	.	.	.	.	.	16bb	.
8BB	.	.	.	8gJ)	.	16ddd	.
.	.	.	.	.	.	16bbJ)	.
8D	.	4.d	.	(16ddL	.	4.gg	.
.	.	.	.	16b	.	.	.
8GJ	.	.	.	16dd	.	.	.
.	.	.	.	16bJ)	.	.	.
8BL)	.	.	.	8g'L	.	.	.
8c'	.	8d	.	8f#'	.	8aa'L	.
8B'	.	[4dd	.	8g'	.	8bb'	.
8A'J	.	.	.	8a'J	.	8ccc'J	.
!!LO:LB
=51	=51	=51	=51	=51	=51	=51	=51
4G	.	8dd]	.	8b	.	(16dddL	.
.	.	.	.	.	.	16bb	.
.	.	8r	.	8r	.	16ddd	.
.	.	.	.	.	.	16bbJ	.
4r	.	(16bL	.	(16ddL	.	8gg)	.
.	.	16a	.	16cc	.	.	.
.	.	16b	.	16dd	.	8r	.
.	.	16aJ	.	16ccJ	.	.	.
2r	.	8g)	.	8b)	.	(16bbL	.
.	.	.	.	.	.	16gg	.
.	.	8r	.	8r	.	16bb	.
.	.	.	.	.	.	16ggJ	.
.	.	(16gL	.	(16bL	.	8ee)	.
.	.	16f#	.	16a	.	.	.
.	.	16g	.	16b	.	8r	.
.	.	16f#yJ	.	16aJ	.	.	.
=52	=52	=52	=52	=52	=52	=52	=52
2r	.	8e)	.	8g)	.	(16ggL	.
.	.	.	.	.	.	16ee	.
.	.	8r	.	8r	.	16gg	.
.	.	.	.	.	.	16eeJ)	.
.	.	(16eL	.	(16gL	.	2b	.
.	.	16d#	.	16f#	.	.	.
.	.	16e	.	16g	.	.	.
.	.	16d#yJ	.	16f#yJ	.	.	.
2A	.	2e)	.	2g)	.	.	.
.	.	.	.	.	.	(8.cc#LT	.
.	.	.	.	.	.	32b	.
.	.	.	.	.	.	32cc#yJ)	.
=53	=53	=53	=53	=53	=53	=53	=53
4D	.	(8dnL	.	(8f#L	.	(16ddL	.
.	.	.	.	.	.	16ee	.
.	.	8A)	.	8d)	.	16ff#	.
.	.	.	.	.	.	16ggJ	.
4r	.	8d	.	8f#y'	.	8aa)	.
.	.	8dJ	.	8f#y'J	.	8r	.
4D	.	8r	.	8r	.	(16cc#L	.
.	.	.	.	.	.	16dd	.
.	.	8c#L	.	8gL	.	16ee	.
.	.	.	.	.	.	16ff#yJ)	.
4r	.	8c#y	.	(8e	.	(8ggL	.
.	.	8c#yJ	.	8gJ)	.	8eeJ)	.
!!LO:LB
=54	=54	=54	=54	=54	=54	=54	=54
4D	.	(8dL	.	(8f#L	.	(16ddL	.
.	.	.	.	.	.	16ee	.
.	.	8A)	.	8d)	.	16ff#	.
.	.	.	.	.	.	16ggJ	.
4r	.	8d'	.	8f#y	.	8aa)	.
.	.	8d'J	.	8f#yJ	.	8r	.
4D	.	8r	.	8r	.	(16cc#L	.
.	.	.	.	.	.	16dd	.
.	.	8c#L	.	8g	.	16ee	.
.	.	.	.	.	.	16ff#yJ	.
4r	.	8c#y	.	(16eL	.	16ggL	.
.	.	.	.	16g	.	16ee	.
.	.	8c#yJ	.	16e	.	16gg	.
.	.	.	.	16gJ)	.	16eeJ)	.
=55	=55	=55	=55	=55	=55	=55	=55
8D'L	.	8d'L	.	(16f#L	.	8ddL	.
.	.	.	.	16a	.	.	.
.	.	.	.	.	.	(<16qff#	.
8AA'	.	8c#'	.	16g	.	8ee)	.
.	.	.	.	16aJ	.	.	.
8D'	.	8d'	.	16f#yL	.	8dd	.
.	.	.	.	16a	.	.	.
.	.	.	.	.	.	(<16qff#y	.
8AA'J	.	8c#y'J	.	16g	.	8eeJ)	.
.	.	.	.	16aJ)	.	.	.
4D	.	4d	.	4f#y	.	4dd	.
4r	.	4r	.	4r	.	4r	.
=56	=56	=56	=56	=56	=56	=56	=56
!!Error: measure 56, staff 1 is underfilled: adding token 8ryy at end of measure to complete its duration.
8GGL	.	(8BL	.	(8dL	.	4gg 4b 4d 4G	.
8GG	.	8G)	.	8B)	.	.	.
8GG	.	8B'	.	8d'	.	16bbL	.
.	.	.	.	.	.	16aaJ	.
8GGJ	.	8B'J	.	8d'J	.	16ggL	.
.	.	.	.	.	.	16ff#	.
4GG	.	4B	.	4d	.	16ee	.
.	.	.	.	.	.	16ddJ	.
.	.	.	.	.	.	16ccL	.
.	.	.	.	.	.	16b	.
4r	.	4r	.	4r	.	16a	.
.	.	.	.	.	.	16gJ	.
.	.	.	.	.	.	8ryy	.
=57	=57	=57	=57	=57	=57	=57	=57
[2A	.	[2d [2c	.	2r	.	(16f#L	.
.	.	.	.	.	.	16a	.
.	.	.	.	.	.	16g	.
.	.	.	.	.	.	16bJ	.
.	.	.	.	.	.	16aL	.
.	.	.	.	.	.	16cc	.
.	.	.	.	.	.	16b	.
.	.	.	.	.	.	16ddJ	.
4A]	.	4d] 4c]	.	(16f#L	.	4cc)	.
.	.	.	.	16a	.	.	.
.	.	.	.	16g	.	.	.
.	.	.	.	16bJ	.	.	.
4r	.	4r	.	16aL	.	4r	.
.	.	.	.	16cc	.	.	.
.	.	.	.	16b	.	.	.
.	.	.	.	16ddJ)	.	.	.
!!LO:LB
=58	=58	=58	=58	=58	=58	=58	=58
8DL	.	8f#	.	(8ccL	.	(16aaL	.
.	.	.	.	.	.	16gg#)	.
8D	.	4f#y	.	8a)	.	16ccc	.
.	.	.	.	.	.	16bbJ	.
8D	.	.	.	(8cc	.	(16aaL	.
.	.	.	.	.	.	16gg#y)	.
8DJ	.	8f#y	.	8aJ)	.	16ccc	.
.	.	.	.	.	.	16bbJ	.
(4.D	.	4f#y	.	4cc	.	16aaL	.
.	.	.	.	.	.	16ggn	.
.	.	.	.	.	.	16ff#	.
.	.	.	.	.	.	16eeJ	.
.	.	8r	.	8r	.	16ddL	.
.	.	.	.	.	.	16cc	.
8C)	.	8d	.	8f#	.	16b	.
.	.	.	.	.	.	16aJ	.
=59	=59	=59	=59	=59	=59	=59	=59
4BB	.	4d	.	4g	.	(16gL	.
.	.	.	.	.	.	16b	.
.	.	.	.	.	.	16a	.
.	.	.	.	.	.	16ccJ	.
4r	.	4r	.	4r	.	16bL	.
.	.	.	.	.	.	16dd	.
.	.	.	.	.	.	16cc	.
.	.	.	.	.	.	16eeJ	.
2r	.	(16GL	.	2r	.	4dd)	.
.	.	16B	.	.	.	.	.
.	.	16A	.	.	.	.	.
.	.	16cJ	.	.	.	.	.
.	.	16BL	.	.	.	4r	.
.	.	16d	.	.	.	.	.
.	.	16c	.	.	.	.	.
.	.	16eJ	.	.	.	.	.
=60	=60	=60	=60	=60	=60	=60	=60
1r	.	4d)	.	2r	.	(16bL	.
.	.	.	.	.	.	16dd	.
.	.	.	.	.	.	16cc	.
.	.	.	.	.	.	16eeJ	.
.	.	4r	.	.	.	16ddL	.
.	.	.	.	.	.	16ffn	.
.	.	.	.	.	.	16ee	.
.	.	.	.	.	.	16ggJ	.
.	.	2r	.	(16ddL	.	4ff)	.
.	.	.	.	16ee	.	.	.
.	.	.	.	16ffn	.	.	.
.	.	.	.	16eeJ	.	.	.
.	.	.	.	16ddL	.	4ff	.
.	.	.	.	16cc	.	.	.
.	.	.	.	16b	.	.	.
.	.	.	.	16aJ)	.	.	.
=61	=61	=61	=61	=61	=61	=61	=61
(16EL	.	2.d	.	2.g#	.	(8ffL	.
16G#	.	.	.	.	.	.	.
16F#	.	.	.	.	.	8eeJ)	.
16AJ	.	.	.	.	.	.	.
16G#yL	.	.	.	.	.	4.ee	.
16B	.	.	.	.	.	.	.
16A	.	.	.	.	.	.	.
16cJ	.	.	.	.	.	.	.
4B)	.	.	.	.	.	.	.
.	.	.	.	.	.	(8ee'L	.
4r	.	(4g#	.	(4dd	.	8ee'	.
.	.	.	.	.	.	8ee'J)	.
=62	=62	=62	=62	=62	=62	=62	=62
(16AAL	.	2.a)	.	2.cc)	.	(4ee	.
16C	.	.	.	.	.	.	.
16BB	.	.	.	.	.	.	.
16DJ	.	.	.	.	.	.	.
16CL	.	.	.	.	.	4.aa)	.
16E	.	.	.	.	.	.	.
16D	.	.	.	.	.	.	.
16FnJ	.	.	.	.	.	.	.
4E)	.	.	.	.	.	.	.
.	.	.	.	.	.	(8aaL	.
4r	.	4c	.	(4e	.	8bb	.
.	.	.	.	.	.	8cccJ)	.
=63	=63	=63	=63	=63	=63	=63	=63
(16DL	.	2.c	.	2.f#)	.	(8cccL	.
16F#	.	.	.	.	.	.	.
16E	.	.	.	.	.	8ddJ)	.
16GJ	.	.	.	.	.	.	.
16F#yL	.	.	.	.	.	4.dd	.
16A	.	.	.	.	.	.	.
16G	.	.	.	.	.	.	.
16BJ	.	.	.	.	.	.	.
4A)	.	.	.	.	.	.	.
.	.	.	.	.	.	(8dd'L	.
4r	.	(4f#	.	(4cc	.	8dd'	.
.	.	.	.	.	.	8dd'J)	.
=64	=64	=64	=64	=64	=64	=64	=64
(16GGL	.	2.gn)	.	2.b)	.	(8ddL	.
16BB	.	.	.	.	.	.	.
16AA	.	.	.	.	.	8ggJ)	.
16CJ	.	.	.	.	.	.	.
16BBL	.	.	.	.	.	4.gg	.
16D	.	.	.	.	.	.	.
16C	.	.	.	.	.	.	.
16EJ	.	.	.	.	.	.	.
4D)	.	.	.	.	.	.	.
.	.	.	.	.	.	(8ggL	.
4r	.	(4f#	.	(4a	.	8aa	.
.	.	.	.	.	.	8bbJ)	.
!!LO:LB
=65	=65	=65	=65	=65	=65	=65	=65
(16EL	.	8e)	.	8g)	.	(8bbL	.
16G	.	.	.	.	.	.	.
16F#	.	8r	.	8r	.	8ccJ)	.
16AJ	.	.	.	.	.	.	.
8G)	.	(8eL	.	(8gL	.	8r	.
8r	.	8gJ)	.	8bJ)	.	8cc	.
(16F#yL	.	4r	.	4r	.	(8ccL	.
16A	.	.	.	.	.	.	.
16G	.	.	.	.	.	8aaJ)	.
16BJ	.	.	.	.	.	.	.
8A)	.	(8aL	.	(8ccL	.	8r	.
8r	.	8f#J)	.	8aJ)	.	8aa	.
=66	=66	=66	=66	=66	=66	=66	=66
(16D#L	.	4r	.	4r	.	(8aaL	.
16F#	.	.	.	.	.	.	.
16E	.	.	.	.	.	8bJ)	.
16GJ	.	.	.	.	.	.	.
8F#y)	.	(8d#L	.	(8f#L	.	8r	.
8r	.	8f#J)	.	8aJ)	.	8b	.
(16EL	.	4r	.	4r	.	(8bL	.
16G	.	.	.	.	.	.	.
16F#y	.	.	.	.	.	8ggJ)	.
16AJ	.	.	.	.	.	.	.
8G)	.	(8gL	.	(8bL	.	8r	.
8r	.	8eJ)	.	8gJ)	.	8gg	.
=67	=67	=67	=67	=67	=67	=67	=67
4C	.	4r	.	4r	.	(16eeL	.
.	.	.	.	.	.	16dd#	.
.	.	.	.	.	.	16ff#	.
.	.	.	.	.	.	16eeJ	.
4r	.	(16cL	.	(16aL	.	8gg)	.
.	.	16B	.	16g#	.	.	.
.	.	16d	.	16b	.	8r	.
.	.	16cJ	.	16aJ	.	.	.
4C	.	8e)	.	8cc)	.	(16ccL	.
.	.	.	.	.	.	16b	.
.	.	8r	.	8r	.	16dd	.
.	.	.	.	.	.	16ccJ	.
4r	.	(16AL	.	(16cL	.	8ee)	.
.	.	16G#	.	16B	.	.	.
.	.	16B	.	16d	.	8r	.
.	.	16AJ)	.	16cJ)	.	.	.
!!LO:LB
=68	=68	=68	=68	=68	=68	=68	=68
[2C	.	[2c	.	[2e	.	(16aL	.
.	.	.	.	.	.	16g#	.
.	.	.	.	.	.	16b	.
.	.	.	.	.	.	16aJ	.
.	.	.	.	.	.	16ccL	.
.	.	.	.	.	.	16b	.
.	.	.	.	.	.	16dd	.
.	.	.	.	.	.	16ccJ	.
8CL]	.	8c]	.	8eL]	.	16eeL	.
.	.	.	.	.	.	16dd	.
(8c	.	(4d	.	(8a	.	16ff#	.
.	.	.	.	.	.	16eeJ	.
8B	.	.	.	8g	.	16ggL	.
.	.	.	.	.	.	16ff#y	.
8AJ)	.	8c)	.	8f#J)	.	16aa	.
.	.	.	.	.	.	16ggJ)	.
=69	=69	=69	=69	=69	=69	=69	=69
(4G	.	(4B	.	2.g	.	(16bbL	.
.	.	.	.	.	.	16aa	.
.	.	.	.	.	.	16gg	.
.	.	.	.	.	.	16ff#J	.
4BB)	.	8dL	.	.	.	16aaL	.
.	.	.	.	.	.	16gg	.
.	.	8GJ)	.	.	.	16ff#y	.
.	.	.	.	.	.	16eeJ)	.
(4C	.	2A	.	.	.	(16dd#L	.
.	.	.	.	.	.	16ee	.
.	.	.	.	.	.	16ddn	.
.	.	.	.	.	.	16ccJ	.
4E)	.	.	.	[4g	.	16bL	.
.	.	.	.	.	.	16a	.
.	.	.	.	.	.	16b	.
.	.	.	.	.	.	16ccJ)	.
=70	=70	=70	=70	=70	=70	=70	=70
8DL	.	8BL	.	8gL]	.	(16ddL	.
.	.	.	.	.	.	16cc	.
8D	.	8B	.	8g	.	16b	.
.	.	.	.	.	.	16ccJ	.
8D	.	8B	.	8g	.	16ddL	.
.	.	.	.	.	.	16ee	.
8DJ	.	8BJ	.	8gJ	.	16ff#	.
.	.	.	.	.	.	16ggJ)	.
8DL	.	8cL	.	8f#L	.	2aT	.
8D	.	8c	.	8f#y	.	.	.
8D	.	8c	.	8f#y	.	.	.
8DJ	.	8cJ	.	8f#yJ	.	.	.
.	.	.	.	.	.	(<32qgL	.
.	.	.	.	.	.	32qaJ)	.
!!LO:LB
=71	=71	=71	=71	=71	=71	=71	=71
4GG	.	4B	.	4g	.	4g	.
4G	.	4r	.	4r	.	4r	.
2r	.	2r	.	4B	.	4dd	.
.	.	.	.	4B	.	4dd	.
=72	=72	=72	=72	=72	=72	=72	=72
4GG	.	4g	.	[4A#	.	[4cc#	.
4G	.	4g	.	(12A#yL_	.	(12cc#yL_	.
.	.	.	.	12B)	.	12dd)	.
.	.	.	.	12GJ	.	12bJ	.
4D	.	[2g	.	(12A#yL	.	(12cc#yL	.
.	.	.	.	12B)	.	12dd)	.
.	.	.	.	12GJ	.	12bJ	.
4BB	.	.	.	(12A#yL	.	(12cc#yL	.
.	.	.	.	12B)	.	12dd)	.
.	.	.	.	12GJ	.	12bJ	.
=73	=73	=73	=73	=73	=73	=73	=73
4GG	.	4g]	.	(8.BL	cresc.	(8.ddL	cresc.
.	.	.	.	16GJ)	.	16bJ)	.
4r	.	4r	.	4B	.	4dd	.
2r	.	2r	.	(8d#L	.	8r	.
.	.	.	.	8e	.	(4gg	.
.	.	.	.	8c#	.	.	.
.	.	.	.	8dnJ)	.	8ff#)	.
=74	=74	=74	=74	=74	=74	=74	=74
4r	.	4r	.	(8BL	.	(8ff#y_	.
.	.	.	.	8cn	.	4ee	.
8r	.	8r	.	8A#	.	.	.
(8G#	.	(8fn	.	8BJ)	.	8dd	.
8AL	.	8eL	.	(8c#L	.	8cc#L	.
8F#	.	8e-	.	8a	.	8ccn	.
8Gn	.	8d	.	8g)	.	8b	.
8C#J)	.	8AJ)	.	8gJ	.	8eeJ)	.
=75	=75	=75	=75	=75	=75	=75	=75
2D	.	2d	.	(4B	.	(4g	.
.	.	.	.	4A)	.	4f#)	.
4B	.	2r	.	4dd	.	2r	.
4B	.	.	.	4dd	.	.	.
=76	=76	=76	=76	=76	=76	=76	=76
[4A#	.	1r	.	[4cc#	.	4gg	.
(12A#yL_	.	.	.	(12cc#yL_	.	4gg	.
12B)	.	.	.	12dd)	.	.	.
12GJ	.	.	.	12bJ	.	.	.
(12A#yL	.	.	.	(12cc#yL	.	(4.gg	.
12B)	.	.	.	12dd)	.	.	.
12GJ	.	.	.	12bJ	.	.	.
(12A#yL	.	.	.	(12cc#yL	.	.	.
12B)	.	.	.	12dd)	.	.	.
.	.	.	.	.	.	8bb)	.
12GJ	.	.	.	12bJ	.	.	.
=77	=77	=77	=77	=77	=77	=77	=77
(8.BL	.	2r	.	(8.ddL	.	(12ff#L	.
.	.	.	.	.	.	12aa)	.
.	.	.	.	.	.	12ggJ	.
16GJ)	.	.	.	16bJ)	.	.	.
4B	.	.	.	4dd	.	12ffnL	.
.	.	.	.	.	.	12ee	.
.	.	.	.	.	.	12ddJ	.
4r	.	4r	.	4r	.	12ccL	.
.	.	.	.	.	.	12b	.
.	.	.	.	.	.	12aJ	.
4BB	.	[4G	.	(4d	.	(12gL	.
.	.	.	.	.	.	12a)	.
.	.	.	.	.	.	12fnJ	.
=78	=78	=78	=78	=78	=78	=78	=78
4C	.	4G]	.	12cL)	.	12eL	.
.	.	.	.	12ee	.	12gg	.
.	.	.	.	12ddJ	.	12ff#J	.
4C	.	(8.gL	.	12ccL	.	12eeL	.
.	.	.	.	12b	.	12dd	.
.	.	.	.	12aJ	.	12ccJ	.
.	.	16eJ)	.	.	.	.	.
4D	.	(4.d	.	(12gL	.	(12bL	.
.	.	.	.	12cc)	.	12ee)	.
.	.	.	.	12bJ	.	12ddJ	.
4D	.	.	.	12aL	.	12ccL	.
.	.	.	.	12g	.	12b	.
.	.	8c)	.	.	.	.	.
.	.	.	.	12f#J	.	12aJ	.
=79	=79	=79	=79	=79	=79	=79	=79
4GG	.	12BL	.	4g	.	4g	.
.	.	12dd	.	.	.	.	.
.	.	12ccJ	.	.	.	.	.
(4G	.	12bL	.	4r	.	4r	.
.	.	12a	.	.	.	.	.
.	.	12gJ	.	.	.	.	.
4A	.	12f#L	.	4r	.	4r	.
.	.	12e	.	.	.	.	.
.	.	12dJ	.	.	.	.	.
4D)	.	(12cLT	.	(4f#	.	[4dd	.
.	.	12B	.	.	.	.	.
.	.	12cJ)	.	.	.	.	.
!!LO:LB
=80	=80	=80	=80	=80	=80	=80	=80
4r	.	4B	.	4g	.	12ddL]	.
.	.	.	.	.	.	12ddd	.
.	.	.	.	.	.	12cccJ	.
(4G	.	4r	.	4d)	.	12bbL	.
.	.	.	.	.	.	12aa	.
.	.	.	.	.	.	12ggJ	.
4A	.	4r	.	4r	.	12ff#L	.
.	.	.	.	.	.	12ee	.
.	.	.	.	.	.	12ddJ	.
4D)	.	[4d	.	(4ff#	.	(12ccLT	.
.	.	.	.	.	.	12b	.
.	.	.	.	.	.	12ccJ)	.
=81	=81	=81	=81	=81	=81	=81	=81
4r	.	12dL]	.	4gg	.	4b	.
.	.	12dd	.	.	.	.	.
.	.	12ccJ	.	.	.	.	.
(4G	.	12bL	.	4dd)	.	4r	.
.	.	12a	.	.	.	.	.
.	.	12gJ	.	.	.	.	.
4A	.	12f#L	.	4r	.	4r	.
.	.	12e	.	.	.	.	.
.	.	12dJ	.	.	.	.	.
4D)	.	(12cLT	.	(4f#	.	[4dd	.
.	.	12B	.	.	.	.	.
.	.	12cJ)	.	.	.	.	.
=82	=82	=82	=82	=82	=82	=82	=82
4r	.	4B	.	4g	.	12ddL]	.
.	.	.	.	.	.	12ddd	.
.	.	.	.	.	.	12cccJ	.
(4G	.	4r	.	4d)	.	12bbL	.
.	.	.	.	.	.	12aa	.
.	.	.	.	.	.	12ggJ	.
4A	.	4r	.	4r	.	12ff#L	.
.	.	.	.	.	.	12ee	.
.	.	.	.	.	.	12ddJ	.
4D)	.	[4d	.	(4ff#	.	(12ccLT	.
.	.	.	.	.	.	12b	.
.	.	.	.	.	.	12ccJ)	.
=83	=83	=83	=83	=83	=83	=83	=83
4r	.	12dL]	.	4gg	.	4b	.
.	.	12dd	.	.	.	.	.
.	.	12ccJ	.	.	.	.	.
(4G	.	12bL	.	4dd)	.	4r	.
.	.	12a	.	.	.	.	.
.	.	12gJ	.	.	.	.	.
4A	.	12f#L	.	2r	.	4r	.
.	.	12e	.	.	.	.	.
.	.	12dJ	.	.	.	.	.
4D)	.	12cL	.	.	.	4ff#	.
.	.	12B	.	.	.	.	.
.	.	12AJ	.	.	.	.	.
!!LO:LB
=84	=84	=84	=84	=84	=84	=84	=84
8BBL	.	8GL	.	8ddL	.	(16ggL	.
.	.	.	.	.	.	16ff#)	.
8BBJ	.	8GJ	.	8dJ	.	16bb	.
.	.	.	.	.	.	16aaJ	.
4BB	.	4G	.	4d	.	16ggL	.
.	.	.	.	.	.	16ff#y	.
.	.	.	.	.	.	16ee	.
.	.	.	.	.	.	16ddJ	.
2r	.	2r	.	2r	.	16ccL	.
.	.	.	.	.	.	16b	.
.	.	.	.	.	.	16a	.
.	.	.	.	.	.	16gJ	.
.	.	.	.	.	.	(16f#L	.
.	.	.	.	.	.	16g)	.
.	.	.	.	.	.	16a	.
.	.	.	.	.	.	16gJ	.
=85	=85	=85	=85	=85	=85	=85	=85
8CL	.	8gL	.	8ccL	.	(16eeL	.
.	.	.	.	.	.	16dd#)	.
8CJ	.	8EJ	.	8cJ	.	16gg'	.
.	.	.	.	.	.	16ff#'J	.
4C	.	4E	.	4c	.	16eeL	.
.	.	.	.	.	.	16ddn	.
.	.	.	.	.	.	16cc	.
.	.	.	.	.	.	16bJ	.
2r	.	2r	.	2r	.	16aL	.
.	.	.	.	.	.	16g	.
.	.	.	.	.	.	16f#	.
.	.	.	.	.	.	16eJ	.
.	.	.	.	.	.	(16d#L	.
.	.	.	.	.	.	16e)	.
.	.	.	.	.	.	16f#y	.
.	.	.	.	.	.	16eJ	.
=86	=86	=86	=86	=86	=86	=86	=86
8DL	.	8f#L	.	8aL	.	(16ccL	.
.	.	.	.	.	.	16b)	.
8DJ	.	8F#J	.	8AJ	.	16ee	.
.	.	.	.	.	.	16ddJ	.
4D	.	4F#y	.	4A	.	16ccL	.
.	.	.	.	.	.	16b	.
.	.	.	.	.	.	16a	.
.	.	.	.	.	.	16gJ	.
2r	.	2r	.	2r	.	16f#L	.
.	.	.	.	.	.	16e	.
.	.	.	.	.	.	16d	.
.	.	.	.	.	.	16cJ	.
.	.	.	.	.	.	(16BL	.
.	.	.	.	.	.	16c)	.
.	.	.	.	.	.	16d	.
.	.	.	.	.	.	16cJ	.
!!LO:LB
=87	=87	=87	=87	=87	=87	=87	=87
4GG	.	4D	.	4G	.	16BL	.
.	.	.	.	.	.	16c	.
.	.	.	.	.	.	16d	.
.	.	.	.	.	.	16eJ	.
4r	.	4r	.	4r	.	16f#L	.
.	.	.	.	.	.	16g	.
.	.	.	.	.	.	16a	.
.	.	.	.	.	.	16bJ	.
2r	.	2r	.	2r	.	16ccL	.
.	.	.	.	.	.	16dd	.
.	.	.	.	.	.	16ee	.
.	.	.	.	.	.	16ff#J	.
.	.	.	.	.	.	16ggL	.
.	.	.	.	.	.	16aa	.
.	.	.	.	.	.	16bb	.
.	.	.	.	.	.	16cccJ	.
=88	=88	=88	=88	=88	=88	=88	=88
8FFnL	.	2B	.	16GL	.	2ddd	.
.	.	.	.	(16g	.	.	.
8F	.	.	.	16f#	.	.	.
.	.	.	.	16gJ	.	.	.
8F	.	.	.	16aL	.	.	.
.	.	.	.	16g	.	.	.
8FJ	.	.	.	16f#y	.	.	.
.	.	.	.	16gJ)	.	.	.
8FL	.	2d	.	16GL	.	2B	.
.	.	.	.	(16g	.	.	.
8F	.	.	.	16f#y	.	.	.
.	.	.	.	16gJ	.	.	.
8F	.	.	.	16aL	.	.	.
.	.	.	.	16g	.	.	.
8FJ	.	.	.	16f#y	.	.	.
.	.	.	.	16gJ)	.	.	.
=89	=89	=89	=89	=89	=89	=89	=89
8EEL	.	2G	.	16GL	.	2c	.
.	.	.	.	(16g	.	.	.
8E	.	.	.	16f#	.	.	.
.	.	.	.	16gJ	.	.	.
8E	.	.	.	16aL	.	.	.
.	.	.	.	16g	.	.	.
8EJ	.	.	.	16f#y	.	.	.
.	.	.	.	16gJ)	.	.	.
8CC#L	.	2A	.	16GL	.	2eee	.
.	.	.	.	(16g	.	.	.
8C#	.	.	.	16f#y	.	.	.
.	.	.	.	16gJ	.	.	.
8C#y	.	.	.	16aL	.	.	.
.	.	.	.	16g	.	.	.
8C#yJ	.	.	.	16f#y	.	.	.
.	.	.	.	16gJ)	.	.	.
=90	=90	=90	=90	=90	=90	=90	=90
8DDL	.	2d	.	16BL	.	2ddd	.
.	.	.	.	(16b	.	.	.
8D	.	.	.	16a	.	.	.
.	.	.	.	16bJ	.	.	.
8D	.	.	.	16ccL	.	.	.
.	.	.	.	16b	.	.	.
8DJ	.	.	.	16a	.	.	.
.	.	.	.	16bJ)	.	.	.
8DDL	.	(4.cT	.	16dL	.	(4.ff#T	.
.	.	.	.	(16a	.	.	.
8D	.	.	.	16g	.	.	.
.	.	.	.	16aJ	.	.	.
8D	.	.	.	16bL	.	.	.
.	.	.	.	16a	.	.	.
8DJ	.	16BL	.	16g	.	16eeL	.
.	.	16cJ)	.	16aJ)	.	16ff#yJ)	.
=91	=91	=91	=91	=91	=91	=91	=91
8GGL	.	4B	.	[2g	.	4gg	.
8GG	.	.	.	.	.	.	.
8GG	.	(4d	.	.	.	4r	.
8GGJ	.	.	.	.	.	.	.
8GGL	.	4B	.	8gL]	.	2r	.
8GG	.	.	.	(8g	.	.	.
8GG	.	4G)	.	8a	.	.	.
8GGJ	.	.	.	8bJ)	.	.	.
=92	=92	=92	=92	=92	=92	=92	=92
8GGL	.	(4F#	.	(4dd	.	[2dd	.
8GG	.	.	.	.	.	.	.
8GG	.	4A	.	4cc)	.	.	.
8GGJ	.	.	.	.	.	.	.
8GGL	.	4F#y	.	2r	.	8ddL]	.
8GG	.	.	.	.	.	(8dd	.
8GG	.	4D)	.	.	.	8ee	.
8GGJ	.	.	.	.	.	8ff#J)	.
=93	=93	=93	=93	=93	=93	=93	=93
8GGL	.	(4B	.	8r	.	(4aa	.
8GG	.	.	.	(8f#L	.	.	.
8GG	.	4d	.	8g	.	4gg)	.
8GGJ	.	.	.	8f#yJ	.	.	.
8GGL	.	4B	.	8gL	.	2r	.
8GG	.	.	.	8g#	.	.	.
8GG	.	4G)	.	8a	.	.	.
8GGJ	.	.	.	8bJ)	.	.	.
=94	=94	=94	=94	=94	=94	=94	=94
8GGL	.	(4F#	.	1cc	.	8r	.
8GG	.	.	.	.	.	(8cc#L	.
8GG	.	4A	.	.	.	8dd	.
8GGJ	.	.	.	.	.	8cc#yJ	.
8GGL	.	4F#y	.	.	.	8ddL	.
8GG	.	.	.	.	.	8dd#	.
8GG	.	4D)	.	.	.	8ee	.
8GGJ	.	.	.	.	.	8ff#J)	.
!!LO:LB
=95	=95	=95	=95	=95	=95	=95	=95
8GG	.	[2d	.	(8bL	.	4gg	.
8r	.	.	.	8dd	.	.	.
8BB	.	.	.	8b	.	4r	.
8r	.	.	.	8gJ	.	.	.
8D	.	8dL]	.	8f#L	.	2r	.
8r	.	(8d	.	8d	.	.	.
8DD	.	8e	.	8c	.	.	.
8r	.	8f#J)	.	8AJ)	.	.	.
=96	=96	=96	=96	=96	=96	=96	=96
8GG	.	(4a	.	(8BL	.	[2ddd	.
8r	.	.	.	8d)	.	.	.
8B	.	4g)	.	(8dd	.	.	.
8r	.	.	.	8ggJ)	.	.	.
8d	.	2r	.	(8ff#L	.	8dddL]	.
8r	.	.	.	8ee	.	(8ccc	.
8D	.	.	.	8dd	.	8bb	.
8r	.	.	.	8ccJ)	.	8aaJ)	.
=97	=97	=97	=97	=97	=97	=97	=97
8GG	.	[2d	.	(8a#L	.	(4ff#	.
8r	.	.	.	8b	.	.	.
8BB	.	.	.	8dd	.	4gg)	.
8r	.	.	.	8gJ)	.	.	.
8D	.	8dL]	.	(8f#L	.	2r	.
8r	.	(8d	.	8d	.	.	.
8DD	.	8e	.	8c	.	.	.
8r	.	8f#J)	.	8AJ)	.	.	.
=98	=98	=98	=98	=98	=98	=98	=98
8GG	.	(4a	.	(8BL	.	[2ddd	.
8r	.	.	.	8d)	.	.	.
8B	.	4g)	.	(8dd	.	.	.
8r	.	.	.	8ggJ)	.	.	.
8d	.	2r	.	(8ff#L	.	8dddL]	.
8r	.	.	.	8ee	.	(8ccc	.
8D	.	.	.	8dd	.	8bb	.
8r	.	.	.	8ccJ)	.	8aaJ)	.
=99	=99	=99	=99	=99	=99	=99	=99
[2GG	cre	8r	.	(8a#L	.	(8ff#L	.
.	.	8dL	.	8b)	.	8gg)	.
.	.	8d	.	8b'	.	8gg'	.
.	.	8dJ	.	8b'J	.	8gg'J	.
8GGL]	.	4d	.	4b	.	4gg	.
(8GG	.	.	.	.	.	.	.
8AA	.	4r	.	4r	.	4r	.
8BBJ)	.	.	.	.	.	.	.
=100	=100	=100	=100	=100	=100	=100	=100
(4D	scen	8r	cre	8r	cre	8r	cre
.	.	8eL	.	(8AL	.	(8gL	.
4C)	.	8e	.	8a)	.	8gg)	.
.	.	8eJ	.	8aJ	.	8ggJ	.
8CL]	.	4e	.	4a	.	4gg	.
(8AA	.	.	.	.	.	.	.
8BB	.	4r	.	4r	.	4r	.
8CJ)	.	.	.	.	.	.	.
!!LO:LB
=101	=101	=101	=101	=101	=101	=101	=101
(4E	.	8r	scen	8r	scen	8r	scen
.	.	8fnL	.	(8BL	.	(8gL	.
4D)	.	8f	.	8b)	.	8gg)	.
.	.	8fJ	.	8bJ	.	8ggJ	.
8DL]	.	4f	.	4b	.	4gg	.
(8BB	.	.	.	.	.	.	.
8C	.	4r	.	4r	.	4r	.
8DJ)	.	.	.	.	.	.	.
=102	=102	=102	=102	=102	=102	=102	=102
(4Fn	do	8r	do	8r	do	8r	do
.	.	8gL	.	(8cL	.	(8gL	.
4E)	.	8g	.	8cc)	.	8gg)	.
.	.	8gJ	.	8ccJ	.	8ggJ	.
8EL]	.	4g	.	4cc	.	4gg	.
(8C	.	.	.	.	.	.	.
8D	.	4r	.	4r	.	4r	.
8EJ)	.	.	.	.	.	.	.
=103	=103	=103	=103	=103	=103	=103	=103
[2G	.	[2b-	.	[2cc#	.	[2ee	.
(8GL_	.	(8b-yL_	.	(8cc#yL_	.	(8eeL_	.
8F	.	8a	.	8dd	.	8ffn	.
8E	.	8g	.	8ee	.	8gg	.
8DJ)	.	8fJ)	.	8ffnJ)	.	8aaJ)	.
=104	=104	=104	=104	=104	=104	=104	=104
(2A-	.	[2f	.	[2d	.	[2cc	.
4G)	.	4f]	.	4d]	.	(8ccL_	.
.	.	.	.	.	.	8b	.
4r	.	4r	.	4r	.	8ff	.
.	.	.	.	.	.	8ddJ)	.
=105	=105	=105	=105	=105	=105	=105	=105
1r	.	4r	.	1r	.	(8ccL	.
.	.	.	.	.	.	8b	.
.	.	(8dL	.	.	.	8dd	.
.	.	8BJ	.	.	.	8bJ	.
.	.	8AL	.	.	.	8aL	.
.	.	8G	.	.	.	8g	.
.	.	8A	.	.	.	8a	.
.	.	8FJ)	.	.	.	8fJ)	.
=106	=106	=106	=106	=106	=106	=106	=106
1r	.	(8EL	.	1r	.	(8eL	.
.	.	8D	.	.	.	8d	.
.	.	8E	.	.	.	8e	.
.	.	8FJ	.	.	.	8fJ	.
.	.	8F#L	.	.	.	8f#L	.
.	.	8G	.	.	.	8g	.
.	.	8A	.	.	.	8a	.
.	.	8BJ)	.	.	.	8bJ)	.
!!LO:LB
=107:|!	=107:|!	=107:|!	=107:|!	=107:|!	=107:|!	=107:|!	=107:|!
8B-L	.	4c	.	(8eL	.	[2cc	.
8B-y	.	.	.	8f	.	.	.
8B-y	.	4r	.	8e	.	.	.
8B-yJ	.	.	.	8fJ	.	.	.
8B-yL	.	2r	.	4e)	.	(8ccL_	.
8B-y	.	.	.	.	.	8dd	.
8B-y	.	.	.	4r	.	8ee	.
8B-yJ	.	.	.	.	.	8ffJ)	.
=108	=108	=108	=108	=108	=108	=108	=108
8BL	.	[2c	.	(8eeL	.	(2aa	.
8B-y	.	.	.	8ff	.	.	.
8B-y	.	.	.	8ee	.	.	.
8B-yJ	.	.	.	8ffJ	.	.	.
8B-yL	.	(8cL_	.	4ee)	.	4gg)	.
8B-y	.	8d	.	.	.	.	.
8B-y	.	8e	.	4r	.	4r	.
8B-yJ	.	8fJ)	.	.	.	.	.
=109	=109	=109	=109	=109	=109	=109	=109
8BL	.	(2a	.	(8eL	.	[2cc	.
8B-y	.	.	.	8f	.	.	.
8B-y	.	.	.	8e	.	.	.
8B-yJ	.	.	.	8fJ	.	.	.
8B-yL	.	4g)	.	4e)	.	(8ccL_	.
8B-y	.	.	.	.	.	8dd	.
8B-y	.	4r	.	4r	.	8ee	.
8B-yJ	.	.	.	.	.	8ffJ)	.
=110	=110	=110	=110	=110	=110	=110	=110
8BL	.	[2c	.	(8eeL	.	(2aa	.
8B-y	.	.	.	8ff	.	.	.
8B-y	.	.	.	8ee	.	.	.
8B-yJ	.	.	.	8ffJ	.	.	.
8B-yL	.	(8cL_	.	4ee)	.	4gg)	.
8B-y	.	8d	.	.	.	.	.
8B-y	.	8e	.	4r	.	4r	.
8B-yJ	.	8fJ)	.	.	.	.	.
=111	=111	=111	=111	=111	=111	=111	=111
8AL	.	(2a	.	(8eL	.	[2cc#	.
8A	.	.	.	8f	.	.	.
8A	.	.	.	8e	.	.	.
8AJ	.	.	.	8fJ	.	.	.
8AL	.	4g)	.	4e)	.	(8cc#yL_	.
8A	.	.	.	.	.	8dd	.
8A	.	4r	.	4r	.	8ee	.
8AJ	.	.	.	.	.	8ffJ)	.
=112	=112	=112	=112	=112	=112	=112	=112
8AL	.	[2c#	.	(8eeL	.	(2aa	.
8A	.	.	.	8ff	.	.	.
8A	.	.	.	8ee	.	.	.
8AJ	.	.	.	8ffJ	.	.	.
8AL	.	(8c#yL_	.	4ee)	.	4gg)	.
8A	.	8e	.	.	.	.	.
8A	.	8g	.	4r	.	4r	.
8AJ	.	8aJ)	.	.	.	.	.
=113	=113	=113	=113	=113	=113	=113	=113
8GL	.	(2cc	.	(8c#L	.	[2ee	.
8G	.	.	.	8d	.	.	.
8G	.	.	.	8c#y	.	.	.
8GJ	.	.	.	8dJ	.	.	.
8GL	.	4b-)	.	4c#y)	.	(8eeL_	.
8G	.	.	.	.	.	8ff	.
8G	.	4r	.	4r	.	8gg	.
8GJ	.	.	.	.	.	8aaJ)	.
=114	=114	=114	=114	=114	=114	=114	=114
8GL	cre	[2e	crescendo	(8cc#L	cre	(2ccc	.
8G	.	.	.	8dd	.	.	.
8G	.	.	.	8cc#y	.	.	.
8GJ	.	.	.	8ddJ	.	.	.
8GL	.	(8eL_	.	4cc#y)	.	4bb-)	.
8G	.	8g	.	.	.	.	.
8G	.	8b-	.	4r	.	4r	.
8GJ	.	8gJ)	.	.	.	.	.
=115	=115	=115	=115	=115	=115	=115	=115
8FL	scen	(2ee-	.	(8b-L	scen	[2ff	crescendo
8F	.	.	.	8ccn	.	.	.
8F	.	.	.	8b-y	.	.	.
8FJ	.	.	.	8ccJ	.	.	.
8FL	.	4dd)	.	4b-y)	.	(8ffL_	.
8F	.	.	.	.	.	8bb-	.
8F	.	4r	.	4r	.	8ddd	.
8FJ	.	.	.	.	.	8bb-yJ)	.
=116	=116	=116	=116	=116	=116	=116	=116
8FL	do	[2c	.	(8aL	do	(2fff	.
8F	.	.	.	8b-	.	.	.
8F	.	.	.	8a	.	.	.
8FJ	.	.	.	8b-yJ	.	.	.
8FL	.	(8cL_	.	4a)	.	4eee-)	.
8F	.	8f	.	.	.	.	.
8F	.	8a	.	4r	.	8r	.
8FJ	.	8fJ)	.	.	.	8aa	.
=117	=117	=117	=117	=117	=117	=117	=117
8FL	.	8aL	.	8r	.	4ccc	.
8FFJ	.	8ccJ	.	8ee-	.	.	.
4F	.	4c	.	4a	.	8r	.
.	.	.	.	.	.	8dd#	.
8r	.	8r	.	8r	.	4aa	.
8FF	.	8d#	.	8cc	.	.	.
4F	.	4A	.	4d#	.	8r	.
.	.	.	.	.	.	8cc	.
!!LO:LB
=118	=118	=118	=118	=118	=118	=118	=118
8r	.	8r	.	8r	.	8dd#L	.
8AL	.	8AL	.	8aL	.	8a	.
8c	.	8c	.	8cc	.	8cc	.
8FJ	.	8FJ	.	8fJ	.	8fJ	.
8cL	.	8cL	.	8ccL	.	8ccL	.
8E	.	8E	.	8e	.	8e	.
8c	.	8c	.	8cc	.	8cc	.
8D#J	.	8D#J	.	8d#J	.	8d#J	.
=119	=119	=119	=119	=119	=119	=119	=119
4E	.	4E	.	4e	.	8eL	.
.	.	.	.	.	.	8g#	.
4G#	.	4B	.	4e 4dn	.	8b	.
.	.	.	.	.	.	8eJ	.
4A	.	4A	.	4e 4c	.	8ccL	.
.	.	.	.	.	.	8a	.
4F	.	4A	.	4a	.	8aa	.
.	.	.	.	.	.	8dd#J	.
=120	=120	=120	=120	=120	=120	=120	=120
4E	.	8BL	.	8g#L	.	8eeL	.
.	.	8G#	.	8e	.	8b	.
4r	.	8B	.	8dd	.	8gg#	.
.	.	8EJ	.	8g#yJ	.	8eeJ	.
2r	.	8cL	.	8eeL	.	8aaL	.
.	.	8A	.	8cc	.	8ee	.
.	.	8a	.	8a	.	8ccc	.
.	.	8d#J	.	8f#J	.	8aaJ	.
=121	=121	=121	=121	=121	=121	=121	=121
[2EE	.	4e	.	4g#	.	4eee	.
.	.	4r	.	4r	.	4r	.
(8EEL_	.	2r	.	2r	.	2r	.
8FF#	.	.	.	.	.	.	.
8GG#	.	.	.	.	.	.	.
8AAJ)	.	.	.	.	.	.	.
=122	=122	=122	=122	=122	=122	=122	=122
(2C	.	2r	.	8r	.	8r	.
.	.	.	.	8fnL	.	8aL	.
.	.	.	.	(8f	.	8a	.
.	.	.	.	8eJ)	.	8aJ	.
4BB)	.	8r	.	(8eL	.	(8aL	.
.	.	(8F#L	.	8d#)	.	8b)	.
4r	.	8G#	.	8d#y	.	(8b	.
.	.	8AJ)	.	8d#yJ	.	8ccJ)	.
=123	=123	=123	=123	=123	=123	=123	=123
[2EE	.	(8AL	.	(8d#L	.	(8ccL	.
.	.	8G#)	.	8e)	.	8b)	.
.	.	8G#y'	.	8e	.	8b'	.
.	.	8G#y'J	.	8eJ	.	8b'J	.
(8EEL_	.	4G#y	.	4e	.	4b	.
8FF#	.	.	.	.	.	.	.
8GG#	.	4r	.	4r	.	4r	.
8AAJ)	.	.	.	.	.	.	.
!!LO:LB
=124	=124	=124	=124	=124	=124	=124	=124
(2C	.	2r	.	8r	.	8r	.
.	.	.	.	8fnL	.	8aL	.
.	.	.	.	(8f	.	8a	.
.	.	.	.	8eJ)	.	8aJ	.
4BB)	.	8r	.	(8eL	.	(8aL	.
.	.	(8F#L	.	8d#)	.	8b)	.
4r	.	8G#	.	8d#y	.	(8b	.
.	.	8AJ)	.	8d#yJ	.	8ccJ)	.
=125	=125	=125	=125	=125	=125	=125	=125
[2EE	.	(8AL	.	(8d#L	.	(8ccL	.
.	.	8G#)	.	8e)	.	8b)	.
.	.	8G#y'	.	8e'	.	8b'	.
.	.	8G#y'J	.	8e'J	.	8b'J	.
8EEL]	.	4G#y	.	4e	.	4b	.
8GG#	.	.	.	.	.	.	.
8BB	.	4r	.	4r	.	4r	.
8DJ	.	.	.	.	.	.	.
=126	=126	=126	=126	=126	=126	=126	=126
(4F	.	8G#	.	8B	.	8r	.
.	.	4G#y	.	4B	.	8dL	.
4E)	.	.	.	.	.	8g#	.
.	.	4G#y	.	4B	.	8bJ	.
8r	.	.	.	.	.	(4ee	.
8GG#L	.	4G#y	.	4B	.	.	.
8BB	.	.	.	.	.	4dd)	.
8DJ	.	[8G#y	.	[8B	.	.	.
=127	=127	=127	=127	=127	=127	=127	=127
(4F	.	8G#y]	.	8B]	.	8r	.
.	.	4G#	.	4B	.	8dL	.
4E)	.	.	.	.	.	8g#	.
.	.	4G#y	.	4B	.	8bJ	.
8r	.	.	.	.	.	(4ee	.
8BL	.	(8G#yL	.	(8eL	.	.	.
8E	.	8B)	.	8g#)	.	4dd)	.
8G#J	.	8eJ	.	8bJ	.	.	.
=128	=128	=128	=128	=128	=128	=128	=128
(4.A	.	4e	.	4a	.	8cc#L	.
.	.	.	.	.	.	8eeJ	.
.	.	8r	.	8r	.	4ggn	.
8B-)	.	8e	.	8cc#	.	.	.
(4.A	.	4gn	.	4ee	.	8r	.
.	.	.	.	.	.	8cc#y	.
.	.	8r	.	8r	.	4ee	.
8B-y)	.	8e	.	8g	.	.	.
=129	=129	=129	=129	=129	=129	=129	=129
4A	.	4g	.	4cc#	.	8r	.
.	.	.	.	.	.	8gnL	.
8r	.	4r	.	4r	.	8b-	.
8Gn	.	.	.	.	.	8eJ	.
8B-L	.	2r	.	2r	.	8gL	.
8E	.	.	.	.	.	8c#	.
8G	.	.	.	.	.	8e	.
8C#J	.	.	.	.	.	8AJ	.
!!LO:LB
=130	=130	=130	=130	=130	=130	=130	=130
4D	.	8f'L	.	8dd'L	.	8r	.
.	.	8f'	.	8dd'	.	(8aL	.
4r	.	8g'	.	8ee'	.	8cc#	.
.	.	8g'J	.	8ee'J	.	8eeJ)	.
4r	.	8f'L	.	8dd'L	.	(4bb-	.
.	.	8f'J	.	8dd'J	.	.	.
4AA	.	(8eLT	.	(8cc#LT	.	4aa)	.
.	.	16d	.	16b	.	.	.
.	.	16eJ)	.	16cc#yJ)	.	.	.
=131	=131	=131	=131	=131	=131	=131	=131
4D	.	8fL	.	8ddL	.	8r	.
.	.	8f	.	8dd	.	(8aL	.
4r	.	8g	.	8ee	.	8cc#	.
.	.	8gJ	.	8eeJ	.	8eeJ)	.
4r	.	8fL	.	8ddL	.	(4bb-	.
.	.	8fJ	.	8ddJ	.	.	.
4AA	.	(8eLT	.	(8cc#LT	.	4aa)	.
.	.	16d	.	16b	.	.	.
.	.	16eJ)	.	16cc#yJ)	.	.	.
=132	=132	=132	=132	=132	=132	=132	=132
8DL	.	8f#	.	8dd	.	2r	.
8F#	.	4f#y	.	4a	.	.	.
8A	.	.	.	.	.	.	.
8cJ	.	4f#y	.	4a	.	.	.
(4e-	.	.	.	.	.	8r	.
.	.	4f#y	.	4a	.	8ccnL	.
4d)	.	.	.	.	.	8ff#	.
.	.	[8f#y	.	[8a	.	8aaJ	.
=133	=133	=133	=133	=133	=133	=133	=133
8r	.	8f#y]	.	8a]	.	(4ddd	.
8F#L	.	4f#	.	4a	.	.	.
8A	.	.	.	.	.	4ccc)	.
8cJ	.	4f#y	.	4a	.	.	.
(4e-	.	.	.	.	.	8r	.
.	.	4f#y	.	4a	.	8ccL	.
4d)	.	.	.	.	.	8ff#	.
.	.	[8f#y	.	[8a	.	8aaJ	.
=134	=134	=134	=134	=134	=134	=134	=134
8r	.	8f#y]	.	8a]	.	(4ddd	.
8F#L	.	4f#	.	4a	.	.	.
8A	.	.	.	.	.	4ccc)	.
8cJ	.	4f#y	.	4a	.	.	.
(4e-	.	.	.	.	.	8r	.
.	.	(8aL	.	4cc	.	8ff#L	.
4d)	.	8f#y)	.	.	.	8aa	.
.	.	8f#yJ	.	8a	.	8cccJ	.
=135	=135	=135	=135	=135	=135	=135	=135
(4.G	.	4g	.	4g	.	8bbL	.
.	.	.	.	.	.	8dddJ	.
.	.	8r	.	8r	.	4ffn	.
8A-)	.	8dd	.	8bb	.	.	.
(4.G	.	4b	.	4dd	.	8r	.
.	.	.	.	.	.	8aa-	.
.	.	8r	.	8r	.	4dd	.
8A-y)	.	8b	.	8ff	.	.	.
=136	=136	=136	=136	=136	=136	=136	=136
4G	.	4d	.	4b	.	8r	.
.	.	.	.	.	.	8ffL	.
8r	.	4r	.	4r	.	8b	.
8Fn	.	.	.	.	.	8ddJ	.
8A-L	.	2r	.	2r	.	8fL	.
8D	.	.	.	.	.	8a-	.
8F	.	.	.	.	.	8d	.
8BBJ	.	.	.	.	.	8fJ	.
=137	=137	=137	=137	=137	=137	=137	=137
4C	.	8e-'L	.	8cc'L	.	8r	.
.	.	8e-y'	.	8cc'	.	(8gL	.
4r	.	8f'	.	8dd'	.	8b	.
.	.	8f'J	.	8dd'J	.	8ddJ)	.
4r	.	8e-y'L	.	8cc'L	.	(4aa-	.
.	.	8e-y'J	.	8cc'J	.	.	.
4GG	.	(8dLT	.	(8bLT	.	4gg)	.
.	.	16c	.	16a	.	.	.
.	.	16dJ)	.	16bJ)	.	.	.
=138	=138	=138	=138	=138	=138	=138	=138
4C	.	8e-L	.	8cc'L	.	8r	.
.	.	8e-y	.	8cc'	.	(8gL	.
4r	.	8f	.	8dd'	.	8b	.
.	.	8fJ	.	8dd'J	.	8ddJ)	.
4r	.	8e-yL	.	8ccL	.	(4aa-	.
.	.	8e-yJ	.	8ccJ	.	.	.
4GG	.	(8dLT	.	(8bLT	.	4gg)	.
.	.	16c	.	16a	.	.	.
.	.	16dJ)	.	16bJ)	.	.	.
=139	=139	=139	=139	=139	=139	=139	=139
4C	.	8e-L	.	8ccL	.	8r	.
.	.	8e-y	.	8g	.	(8ccL	.
4r	.	8e-y	.	8g	.	8ee-	.
.	.	8e-yJ	.	8gJ	.	8ggJ)	.
8r	.	8enL	.	8gL	.	(4bb-	.
(8FFL	.	8e	.	8g	.	.	.
8AA-	.	8f	.	8a-	.	4aa-)	.
8CJ)	.	8fJ	.	8a-yJ	.	.	.
!!LO:LB
=140	=140	=140	=140	=140	=140	=140	=140
(4E-	.	8fL	.	8a-L	.	8r	.
.	.	8f	.	8a-y	.	(8b-L	.
4D)	.	8f	.	8a-y	.	8dd	.
.	.	8fJ	.	8a-yJ	.	8ffJ)	.
8r	.	8dL	.	8fL	.	(4aa-	.
(8EE-L	.	8d	.	8f	.	.	.
8GG	.	8e-	.	8g	.	4gg)	.
8BB-J)	.	8e-yJ	.	8gJ	.	.	.
=141	=141	=141	=141	=141	=141	=141	=141
(4D	.	8e-L	.	8gL	.	8r	.
.	.	8e-y	.	8g	.	(8a-L	.
4C)	.	8e-y	.	8g	.	8cc	.
.	.	8e-yJ	.	8gJ	.	8ee-J)	.
8r	.	8c#L	.	8enL	.	(4gg	.
(8DDL	.	8c#y	.	8e	.	.	.
8FF	.	8d	.	8f	.	4ff)	.
8AA-J)	.	8dJ	.	8fJ	.	.	.
=142	=142	=142	=142	=142	=142	=142	=142
(4C	.	8dL	.	8fL	.	8r	.
.	.	8d	.	8f	.	(8gL	.
4BBn)	.	8d	.	8f	.	8bn	.
.	.	8dJ	.	8fJ	.	8ddJ)	.
8r	.	8BnL	.	8dL	.	(4ff	.
(8CL	.	8B	.	8d	.	.	.
8AA-	.	8cn	.	8e-	.	4ee-)	.
8GGJ)	.	8cJ	.	8e-yJ	.	.	.
=143	=143	=143	=143	=143	=143	=143	=143
4FF#	.	4c	.	4e-	.	8r	.
.	.	.	.	.	.	8ccc	.
8r	.	8r	.	8r	.	4eee-	.
8FF#y	.	8cc	.	8ee-	.	.	.
4F#	.	4e-	.	4a	.	8r	.
.	.	.	.	.	.	8aan	.
8r	.	8r	.	8r	.	4ccc	.
8FF#y	.	8a	.	8cc	.	.	.
=144	=144	=144	=144	=144	=144	=144	=144
4F#	.	4c	.	4e-	.	8r	.
.	.	.	.	.	.	8ff#L	.
8r	.	8r	.	8r	.	8aa	.
8C	.	8c	.	8cc	.	8ccJ	.
8E-L	.	8e-L	.	8ee-L	.	8ee-L	.
8AA	.	8A	.	8a	.	8a	.
8C	.	8c	.	8cc	.	8cc	.
8FF#J	.	8F#J	.	8f#J	.	8f#J	.
!!LO:LB
=145	=145	=145	=145	=145	=145	=145	=145
4GG	.	4G	.	4g	.	8gL	.
.	.	.	.	.	.	8G	.
4BB	.	4d	.	4fn 4G	.	8g	.
.	.	.	.	.	.	8dJ	.
4C	.	4c	.	4e- 4G	.	8e-L	.
.	.	.	.	.	.	8c	.
4AA-	.	4c	.	4c	.	8cc	.
.	.	.	.	.	.	8f#J	.
=146	=146	=146	=146	=146	=146	=146	=146
4GG	.	8dL	.	8BL	.	8gL	.
.	.	8B	.	8G	.	8d	.
4r	.	8d	.	8f	.	8b	.
.	.	8GJ	.	8BJ	.	8gJ	.
2r	.	8e-L	.	8gL	.	8ccL	.
.	.	8c	.	8e-	.	8g	.
.	.	8cc	.	8c	.	8ee-	.
.	.	8f#J	.	8AJ	.	8ccJ	.
=147	=147	=147	=147	=147	=147	=147	=147
[2GG	.	4g	.	4B	.	4gg	.
.	.	4r	.	4r	.	4r	.
(8GGL_	.	2r	.	2r	.	2r	.
8AAn	.	.	.	.	.	.	.
8BB	.	.	.	.	.	.	.
8CJ)	.	.	.	.	.	.	.
=148	=148	=148	=148	=148	=148	=148	=148
(2E-	.	2r	.	8r	.	8r	.
.	.	.	.	8a-L	.	8ccL	.
.	.	.	.	(8a-y	.	8cc	.
.	.	.	.	8gJ)	.	8ccJ	.
4D)	.	8r	.	(8gL	.	(8ccL	.
.	.	(8AnL	.	8f#)	.	8dd)	.
4r	.	8B	.	8f#y	.	(8dd	.
.	.	8cJ)	.	8f#yJ	.	8ee-J)	.
=149	=149	=149	=149	=149	=149	=149	=149
[2GG	.	(8cL	.	(8f#L	.	(8ee-L	.
.	.	8B)	.	8g)	.	8dd)	.
.	.	8B'	.	8g'	.	8dd'	.
.	.	8B'J	.	8g'J	.	8dd'J	.
(8GGL_	.	4B	.	4g	.	4dd	.
8AA	.	.	.	.	.	.	.
8BB	.	4r	.	4r	.	4r	.
8CJ)	.	.	.	.	.	.	.
=150	=150	=150	=150	=150	=150	=150	=150
(2E-	.	2r	.	8r	.	8r	.
.	.	.	.	8a-L	.	8ccL	.
.	.	.	.	(8a-y	.	8cc	.
.	.	.	.	8gJ)	.	8ccJ	.
4D)	.	8r	.	(8gL	.	(8ccL	.
.	.	(8AL	.	8f#)	.	8dd)	.
4r	.	8B	.	8f#y'	.	(8dd	.
.	.	8cJ)	.	8f#y'J	.	8ee-J)	.
!!LO:LB
=151	=151	=151	=151	=151	=151	=151	=151
[2GG	.	(8cL	.	(8fL	.	(8ee-L	.
.	.	8BJ)	.	8g)	.	8dd)	.
.	.	4r	.	8b'	.	8dd'	.
.	.	.	.	8b'J	.	8dd'J	.
(8GGL_	.	[2G	.	4b	.	4dd	.
8BB	.	.	.	.	.	.	.
8D	.	.	.	4r	.	4r	.
8FJ	.	.	.	.	.	.	.
=152	=152	=152	=152	=152	=152	=152	=152
8GL	.	(8GL_	.	[2g	.	2r	.
8F	.	8B	.	.	.	.	.
8D	.	8d	.	.	.	.	.
8BBJ)	.	8fJ	.	.	.	.	.
4GG	.	8gL	.	(8gL_	.	[2gg	.
.	.	8f	.	8b	.	.	.
4r	.	8d	.	8dd	.	.	.
.	.	8BJ)	.	8ffJ	.	.	.
=153	=153	=153	=153	=153	=153	=153	=153
2r	.	4G	.	8ggL	.	(8ggL_	.
.	.	.	.	8ff	.	8bb	.
.	.	4r	.	8dd	.	8ddd	.
.	.	.	.	8bJ)	.	8fffJ	.
4G	.	4d 4B	.	4g	.	8gggL	.
.	.	.	.	.	.	8fff	.
4r	.	4r	.	4r	.	8ddd	.
.	.	.	.	.	.	8bbJ)	.
=154	=154	=154	=154	=154	=154	=154	=154
4GG	.	4f 4G	.	4b 4d	.	(8gggL	.
.	.	.	.	.	.	8fff	.
4r	.	4r	.	4r	.	8ddd	.
.	.	.	.	.	.	8bbJ)	.
2r	.	2r	.	2r	.	2r	.
=155	=155	=155	=155	=155	=155	=155	=155
8cL	.	1r	.	[2e	.	[2cc	.
8c	.	.	.	.	.	.	.
8c	.	.	.	.	.	.	.
8cJ	.	.	.	.	.	.	.
8cL	.	.	.	8eL]	.	8ccL]	.
8c	.	.	.	(8e	.	(8cc	.
8c	.	.	.	8f	.	8dd	.
8cJ	.	.	.	8gJ)	.	8eeJ)	.
=156	=156	=156	=156	=156	=156	=156	=156
8cL	.	(2e	.	(2b-	.	(2gg	.
8c	.	.	.	.	.	.	.
8c	.	.	.	.	.	.	.
8cJ	.	.	.	.	.	.	.
8cL	.	4f)	.	4a)	.	4ff)	.
8c	.	.	.	.	.	.	.
8c	.	4r	.	4r	.	4r	.
8cJ	.	.	.	.	.	.	.
=157	=157	=157	=157	=157	=157	=157	=157
8cL	.	1r	.	[2bn	.	[2dd	.
8c	.	.	.	.	.	.	.
8c	.	.	.	.	.	.	.
8cJ	.	.	.	.	.	.	.
8cL	.	.	.	8bL]	.	8ddL]	.
8c	.	.	.	(8b	.	(8dd	.
8c	.	.	.	8cc	.	8ee	.
8cJ	.	.	.	8ddJ)	.	8ffJ)	.
=158	=158	=158	=158	=158	=158	=158	=158
8cL	.	(2b	.	(2ff	.	(2aa	.
8c	.	.	.	.	.	.	.
8c	.	.	.	.	.	.	.
8cJ	.	.	.	.	.	.	.
8cL	.	4cc)	.	4ee)	.	4gg)	.
8c	.	.	.	.	.	.	.
8c	.	4r	.	4r	.	4r	.
8cJ	.	.	.	.	.	.	.
=159	=159	=159	=159	=159	=159	=159	=159
4c	.	(8ccL	.	(8eeL	.	[2gg	.
.	.	8b	.	8dd#	.	.	.
4r	.	8cc	.	8ee	.	.	.
.	.	8bJ	.	8dd#yJ	.	.	.
8c	.	4cc)	.	4ee)	.	8ggL]	.
8r	.	.	.	.	.	8gg'	.
8B	.	4r	.	4r	.	8aa'	.
8r	.	.	.	.	.	8bb'J	.
=160	=160	=160	=160	=160	=160	=160	=160
4A	.	(8aL	.	(8ccL	.	(8cccL	.
.	.	8g#	.	8b	.	8eeJ)	.
4r	.	8a	.	8cc	.	4.ff	.
.	.	8g#yJ	.	8bJ	.	.	.
8A	.	4a)	.	4cc)	.	.	.
8r	.	.	.	.	.	8ee'L	.
8G	.	4r	.	4r	.	8ff'	.
8r	.	.	.	.	.	8gg'J	.
=161	=161	=161	=161	=161	=161	=161	=161
4F	.	(8fL	.	(8aL	.	(8aaL	.
.	.	8e	.	8g	.	8cc#)	.
8r	.	8f	.	8a	.	8dd'	.
8A	.	8c#J	.	8gJ	.	8ee'J	.
4D	.	8dL	.	8fL	.	(8ffL	.
.	.	8c#y	.	8e	.	8a)	.
8r	.	8d	.	8f	.	8dd'	.
8d	.	8f#J)	.	8aJ)	.	8ccn'J	.
=162	=162	=162	=162	=162	=162	=162	=162
4G	.	4g	.	4g	.	(8ccL	.
.	.	.	.	.	.	8b)	.
4r	.	(4G	.	(4B	.	8a'	.
.	.	.	.	.	.	8g'J	.
2r	.	4A	.	4c	.	(8f#L	.
.	.	.	.	.	.	8g	.
.	.	4B)	.	4d)	.	8fn	.
.	.	.	.	.	.	8dJ)	.
!!LO:LB
=163	=163	=163	=163	=163	=163	=163	=163
8r	.	4c	.	4c	.	[2c	.
(8CCL	.	.	.	.	.	.	.
8EE	.	4r	.	4r	.	.	.
8GGJ)	.	.	.	.	.	.	.
4C	.	[2C	.	2r	.	8cL]	.
.	.	.	.	.	.	(8c	.
4CC	.	.	.	.	.	8d	.
.	.	.	.	.	.	8eJ)	.
=164	=164	=164	=164	=164	=164	=164	=164
8r	.	8CL]	.	[2A	.	(2g	.
(8DDL	.	(8C#	.	.	.	.	.
8FF	.	8D	.	.	.	.	.
8AAJ)	.	8EJ)	.	.	.	.	.
4D	.	[2F	.	8AL]	.	4f)	.
.	.	.	.	(8A	.	.	.
4DD	.	.	.	8B	.	4r	.
.	.	.	.	8cJ)	.	.	.
=165	=165	=165	=165	=165	=165	=165	=165
8r	.	8FL]	.	(2c	.	[2d	.
(8GGL	.	(8F#	.	.	.	.	.
8BB	.	8G	.	.	.	.	.
8DJ)	.	8AJ)	.	.	.	.	.
4G	.	4B	.	4B)	.	8dL]	.
.	.	.	.	.	.	(8d	.
4GG	.	[4D	.	4r	.	8e	.
.	.	.	.	.	.	8fJ)	.
=166	=166	=166	=166	=166	=166	=166	=166
8r	.	8DL]	.	[2B	.	(2a	.
(8EEL	.	(8D#	.	.	.	.	.
8GG	.	8E	.	.	.	.	.
8BBJ)	.	8F#J)	.	.	.	.	.
4E	.	[2G	.	8BL]	.	4g)	.
.	.	.	.	(8B	.	.	.
4EE	.	.	.	8c	.	4r	.
.	.	.	.	8dJ)	.	.	.
=167	=167	=167	=167	=167	=167	=167	=167
8r	.	8GL]	.	(2d	.	[2e	.
(8AAL	.	(8G#	.	.	.	.	.
8C	.	8A	.	.	.	.	.
8EJ)	.	8BJ)	.	.	.	.	.
(4A	.	(4c	.	8cL)	.	8eL]	.
.	.	.	.	(8c	.	(8e	.
4G)	.	4B-)	.	8d	.	8f	.
.	.	.	.	8eJ)	.	8gJ)	.
=168	=168	=168	=168	=168	=168	=168	=168
(4F	.	4A	.	(8fL	.	(8aL	.
.	.	.	.	8a	.	8cc	.
8GL	.	4r	.	8g	.	8b-	.
8AJ)	.	.	.	8fJ	.	8aJ	.
2B-	.	[2c	.	8eL	.	8gL	.
.	.	.	.	8c	.	8e	.
.	.	.	.	8d	.	8f	.
.	.	.	.	8eJ)	.	8gJ)	.
!!LO:LB
=169	=169	=169	=169	=169	=169	=169	=169
(8AL	.	2c_	.	8fL	.	8aL	.
8F	.	.	.	(8aa	.	(8ccc	.
8G	.	.	.	8gg	.	8bb-	.
8AJ)	.	.	.	8ffJ	.	8aaJ	.
2B-	.	2c	.	8eeL	.	8ggL	.
.	.	.	.	8cc	.	8ee	.
.	.	.	.	8dd	.	8ff	.
.	.	.	.	8eeJ)	.	8ggJ)	.
=170	=170	=170	=170	=170	=170	=170	=170
4A	.	(8c#L	.	(8eeL	.	(4aa	.
.	.	8e)	.	8g)	.	.	.
4r	.	8e'	.	8g'	.	2cc#	.
.	.	8e'J	.	8g'J	.	.	.
4D	.	(8eL	.	(8gL	.	.	.
.	.	8d)	.	8f#)	.	.	.
4r	.	8d'	.	8f#y	.	4dd)	.
.	.	8d'J	.	8f#yJ	.	.	.
=171	=171	=171	=171	=171	=171	=171	=171
4G	.	(8dL	.	(8fnL	.	4r	.
.	.	8dd)	.	8ff)	.	.	.
4r	.	8dd'	.	8ff	.	(2bb	.
.	.	8dd'J	.	8ffJ	.	.	.
4A	.	(8ddL	.	(8ffL	.	.	.
.	.	8cc)	.	8ee)	.	.	.
4r	.	8cc'	.	8ee	.	4ccc)	.
.	.	8cc'J	.	8eeJ	.	.	.
=172	=172	=172	=172	=172	=172	=172	=172
2r	.	8A	.	8c	.	(16ddd#L	.
.	.	.	.	.	.	16eee)	.
.	.	8r	.	8r	.	16ccc'	.
.	.	.	.	.	.	16aa'J	.
.	.	(16aL	.	(16ccL	.	2ee	.
.	.	16g#	.	16b	.	.	.
.	.	16a	.	16cc	.	.	.
.	.	16g#yJ	.	16bJ	.	.	.
2d	.	2a)	.	2cc)	.	.	.
.	.	.	.	.	.	(8.ff#LT	.
.	.	.	.	.	.	32ee	.
.	.	.	.	.	.	32ff#yJ)	.
=173	=173	=173	=173	=173	=173	=173	=173
4G	.	(8gnL	.	(8bL	.	(16ggL	.
.	.	.	.	.	.	16aa	.
.	.	8d)	.	8g)	.	16bb	.
.	.	.	.	.	.	16cccJ	.
4r	.	8g'	.	8b'	.	8ddd)	.
.	.	8g'J	.	8b'J	.	8r	.
4G	.	8r	.	8r	.	(16ff#L	.
.	.	.	.	.	.	16gg	.
.	.	8f#L	.	8ccL	.	16aa	.
.	.	.	.	.	.	16bbJ)	.
4r	.	8f#y	.	(8a	.	(8cccL	.
.	.	8f#yJ	.	8ccJ)	.	8aaJ)	.
!!LO:LB
=174	=174	=174	=174	=174	=174	=174	=174
4G	.	(8gL	.	(8bL	.	(16ggL	.
.	.	.	.	.	.	16aa	.
.	.	8d)	.	8g)	.	16bb	.
.	.	.	.	.	.	16cccJ	.
4r	.	8g	.	8b	.	8ddd)	.
.	.	8gJ	.	8bJ	.	8r	.
4G	.	8r	.	8r	.	(16ff#L	.
.	.	.	.	.	.	16gg	.
.	.	8f#L	.	8cc	.	16aa	.
.	.	.	.	.	.	16bbJ	.
4r	.	8f#y	.	(16aL	.	16cccL	.
.	.	.	.	16cc	.	16aa	.
.	.	8f#yJ	.	16a	.	16ccc	.
.	.	.	.	16ccJ)	.	16aaJ)	.
=175	=175	=175	=175	=175	=175	=175	=175
8GL	.	8gL	.	(16bL	.	8ggL	.
.	.	.	.	16dd	.	.	.
.	.	.	.	.	.	(<16qbb	.
8D	.	8f#	.	16cc	.	8aa)	.
.	.	.	.	16ddJ	.	.	.
8G	.	8g	.	16bL	.	8gg	.
.	.	.	.	16dd	.	.	.
.	.	.	.	.	.	(<16qbb	.
8DJ	.	8f#yJ	.	16cc	.	8aaJ)	.
.	.	.	.	16ddJ)	.	.	.
4G	.	4g	.	4b	.	4gg	.
4r	.	4r	.	4r	.	4r	.
=176	=176	=176	=176	=176	=176	=176	=176
8CL	.	(8eL	.	(8gL	.	[4gg 4cc 4e	.
8C	.	8c)	.	8e)	.	.	.
8C	.	8e	.	8g	.	16ggL]	.
.	.	.	.	.	.	16ffn	.
8CJ	.	8eJ	.	8gJ	.	16ee	.
.	.	.	.	.	.	16ddJ	.
4C	.	4e	.	4g	.	16ccL	.
.	.	.	.	.	.	16b	.
.	.	.	.	.	.	16a	.
.	.	.	.	.	.	16gJ	.
4r	.	4r	.	4r	.	16fL	.
.	.	.	.	.	.	16e	.
.	.	.	.	.	.	16d	.
.	.	.	.	.	.	16cJ	.
=177	=177	=177	=177	=177	=177	=177	=177
[2D	.	[2G [2F	.	2r	.	(16BL	.
.	.	.	.	.	.	16d	.
.	.	.	.	.	.	16c	.
.	.	.	.	.	.	16eJ	.
.	.	.	.	.	.	16dL	.
.	.	.	.	.	.	16f	.
.	.	.	.	.	.	16e	.
.	.	.	.	.	.	16gJ	.
4D]	.	4G] 4F]	.	(16BL	.	4f)	.
.	.	.	.	16d	.	.	.
.	.	.	.	16c	.	.	.
.	.	.	.	16eJ	.	.	.
4r	.	4r	.	16dL	.	4r	.
.	.	.	.	16f	.	.	.
.	.	.	.	16e	.	.	.
.	.	.	.	16gJ)	.	.	.
=178	=178	=178	=178	=178	=178	=178	=178
8GL	.	(8dL	.	(8fL	.	16ffL	.
.	.	.	.	.	.	16gg	.
8GG	.	8B)	.	8d)	.	16aa	.
.	.	.	.	.	.	16ggJ	.
8G	.	8d	.	8f	.	16ffL	.
.	.	.	.	.	.	16ee	.
8GJ	.	8dJ	.	8fJ	.	16dd	.
.	.	.	.	.	.	16ccJ	.
2G	.	(8dL	.	(8fL	.	16bL	.
.	.	.	.	.	.	16cc	.
.	.	8B)	.	8d)	.	16dd	.
.	.	.	.	.	.	16ccJ	.
.	.	8B	.	8d	.	16bL	.
.	.	.	.	.	.	16a	.
.	.	8BJ	.	8dJ	.	16g	.
.	.	.	.	.	.	16fJ	.
=179	=179	=179	=179	=179	=179	=179	=179
4C	.	4c	.	4c	.	(16eL	.
.	.	.	.	.	.	16g	.
.	.	.	.	.	.	16f	.
.	.	.	.	.	.	16aJ	.
4r	.	4r	.	4r	.	16gL	.
.	.	.	.	.	.	16b-	.
.	.	.	.	.	.	16a	.
.	.	.	.	.	.	16ccJ	.
2r	.	(16cL	.	(16eL	.	4b-y)	.
.	.	16e	.	16g	.	.	.
.	.	16d	.	16f	.	.	.
.	.	16fJ	.	16aJ	.	.	.
.	.	16eL	.	16gL	.	4r	.
.	.	16g	.	16b-	.	.	.
.	.	16f	.	16a	.	.	.
.	.	16aJ	.	16ccJ	.	.	.
=180	=180	=180	=180	=180	=180	=180	=180
1r	.	4g)	.	4b-)	.	(16eeL	.
.	.	.	.	.	.	16gg	.
.	.	.	.	.	.	16ff	.
.	.	.	.	.	.	16aaJ	.
.	.	4r	.	4r	.	16ggL	.
.	.	.	.	.	.	16bb-	.
.	.	.	.	.	.	16aa	.
.	.	.	.	.	.	16cccJ	.
.	.	2r	.	(16ggL	.	4bb-y)	.
.	.	.	.	16aa	.	.	.
.	.	.	.	16bb-	.	.	.
.	.	.	.	16aaJ	.	.	.
.	.	.	.	16ggL	.	4bb-y	.
.	.	.	.	16ff	.	.	.
.	.	.	.	16ee	.	.	.
.	.	.	.	16ddJ)	.	.	.
!!LO:LB
=181	=181	=181	=181	=181	=181	=181	=181
(16AAL	.	2.g	.	2.cc#	.	(8bb-L	.
16C#	.	.	.	.	.	.	.
16BB	.	.	.	.	.	8aaJ)	.
16DJ	.	.	.	.	.	.	.
16C#yL	.	.	.	.	.	2aa	.
16E	.	.	.	.	.	.	.
16D	.	.	.	.	.	.	.
16FJ	.	.	.	.	.	.	.
4E)	.	.	.	.	.	.	.
4r	.	(4cc#	.	(4gg	.	4aa	.
=182	=182	=182	=182	=182	=182	=182	=182
(16DL	.	2.dd)	.	2.ff)	.	(8.aaL	.
16F	.	.	.	.	.	.	.
16E	.	.	.	.	.	.	.
16GJ	.	.	.	.	.	16ffJ)	.
16FL	.	.	.	.	.	(4.aa	.
16A	.	.	.	.	.	.	.
16G	.	.	.	.	.	.	.
16B-J	.	.	.	.	.	.	.
4A)	.	.	.	.	.	.	.
.	.	.	.	.	.	8dddL	.
4r	.	(4A	.	(4f	.	8ccc#	.
.	.	.	.	.	.	8dddJ)	.
=183	=183	=183	=183	=183	=183	=183	=183
(16EEL	.	2.G#)	.	2.e)	.	(8dddL	.
16GG#	.	.	.	.	.	.	.
16FF#	.	.	.	.	.	8eeJ)	.
16AAJ	.	.	.	.	.	.	.
16GG#yL	.	.	.	.	.	2ee	.
16BBn	.	.	.	.	.	.	.
16AA	.	.	.	.	.	.	.
16CJ	.	.	.	.	.	.	.
4BB)	.	.	.	.	.	.	.
4r	.	(4g#	.	(4dd	.	4ee	.
=184	=184	=184	=184	=184	=184	=184	=184
!!Error: measure 184, staff 4 is underfilled: adding token 24...ryy at end of measure to complete its duration.
((16AAL	.	2.a)	.	2.cc)	.	(8.eeL	.
16C	.	.	.	.	.	.	.
16BB	.	.	.	.	.	.	.
16DJ	.	.	.	.	.	16ffJ)	.
16CL	.	.	.	.	.	4.ee	.
16E	.	.	.	.	.	.	.
16DJ	.	.	.	.	.	.	.
4r	.	.	.	.	.	.	.
.	.	.	.	.	.	(8aaL	.
24...ryy	.	.	.	.	.	.	.
.	.	4A	.	4c	.	8bb	.
.	.	.	.	.	.	8cccJ)	.
!!LO:LB
=185	=185	=185	=185	=185	=185	=185	=185
(16FFL	.	8A	.	8c	.	(8cccL	.
16AA	.	.	.	.	.	.	.
16GG	.	8r	.	8r	.	8ddJ)	.
16BB-J	.	.	.	.	.	.	.
8AA)	.	(8cL	.	(8fL	.	8r	.
8r	.	8fJ)	.	8aJ)	.	8dd	.
(16FL	.	4r	.	4r	.	(8ddL	.
16A	.	.	.	.	.	.	.
16G	.	.	.	.	.	8cccJ)	.
16B-J	.	.	.	.	.	.	.
8A)	.	(8ccL	.	(8ffL	.	8r	.
8r	.	8aJ)	.	8ccJ)	.	8ccc	.
=186	=186	=186	=186	=186	=186	=186	=186
(16GGL	.	4r	.	4r	.	(8cccL	.
16BB-	.	.	.	.	.	.	.
16AA	.	.	.	.	.	8eeJ)	.
16CJ	.	.	.	.	.	.	.
8BB-y)	.	(8GL	.	(8eL	.	8r	.
8r	.	8cJ)	.	8gJ)	.	8ee	.
(16GL	.	4r	.	4r	.	(8eeL	.
16B-	.	.	.	.	.	.	.
16A	.	.	.	.	.	8cccJ)	.
16cJ	.	.	.	.	.	.	.
8B-y)	.	(8eL	.	(8ggL	.	8r	.
8r	.	8gJ)	.	8eeJ)	.	8ccc	.
=187	=187	=187	=187	=187	=187	=187	=187
4A	.	(16aL	.	(16ffL	.	8ccc	.
.	.	16g	.	16ee	.	.	.
.	.	16b-	.	16gg	.	8r	.
.	.	16aJ	.	16ffJ	.	.	.
4r	.	8cc)	.	8aa)	.	(16aaL	.
.	.	.	.	.	.	16gg#	.
.	.	8r	.	8r	.	16bb	.
.	.	.	.	.	.	16aaJ	.
4AA	.	(16AL	.	(16fL	.	8ccc)	.
.	.	16G	.	16e	.	.	.
.	.	16B-	.	16g	.	8r	.
.	.	16AJ	.	16fJ	.	.	.
4r	.	8c)	.	8a)	.	(16ffL	.
.	.	.	.	.	.	16ee	.
.	.	8r	.	8r	.	16ggn	.
.	.	.	.	.	.	16ffJ	.
=188	=188	=188	=188	=188	=188	=188	=188
4F	.	(16fL	.	(16ddL	.	8aa)	.
.	.	16e	.	16cc#	.	.	.
.	.	16g	.	16ee	.	8r	.
.	.	16fJ	.	16ddJ	.	.	.
4r	.	8a)	.	8ff)	.	(16ddL	.
.	.	.	.	.	.	16cc#	.
.	.	8r	.	8r	.	16ee	.
.	.	.	.	.	.	16ddJ)	.
8r	.	8r	.	8r	.	(16ffL	.
.	.	.	.	.	.	16gg)	.
8DL	.	8FL	.	8BL	.	16ff	.
.	.	.	.	.	.	16eeJ	.
8E	.	8G	.	8c	.	16ddL	.
.	.	.	.	.	.	16ccn	.
8FJ	.	8AJ	.	8dJ	.	16b	.
.	.	.	.	.	.	16aJ	.
!!LO:LB
=189	=189	=189	=189	=189	=189	=189	=189
4G	.	8cL	.	8eL	.	8gL	.
.	.	8c	.	8e	.	16a	.
.	.	.	.	.	.	16bJ	.
4E	.	8c	.	8e	.	16ccL	.
.	.	.	.	.	.	16dd	.
.	.	8cJ	.	8eJ	.	16ee	.
.	.	.	.	.	.	16ffJ	.
4r	.	8cL	.	8eL	.	16ggL	.
.	.	.	.	.	.	16ff	.
.	.	8c	.	8e	.	16ee	.
.	.	.	.	.	.	16ffJ	.
4A	.	8c	.	8e	.	16ggL	.
.	.	.	.	.	.	16aa	.
.	.	8cJ	.	8eJ	.	16bb	.
.	.	.	.	.	.	16cccJ	.
=190	=190	=190	=190	=190	=190	=190	=190
4F	.	8cL	.	8dL	.	16gg#L	.
.	.	.	.	.	.	16aa	.
.	.	8c	.	8d	.	16bb	.
.	.	.	.	.	.	16aaJ	.
.	.	.	.	.	.	(<16qggn	.
4D	.	8c	.	8d	.	8ffL)	.
.	.	8cJ	.	8dJ	.	16ee	.
.	.	.	.	.	.	16ddJ	.
4G	.	8BL	.	8fL	.	2ddT	.
.	.	8B	.	8f	.	.	.
4GG	.	8f	.	8b	.	.	.
.	.	8fJ	.	8bJ	.	.	.
.	.	.	.	.	.	(<32qccL	.
.	.	.	.	.	.	32qddJ)	.
=191	=191	=191	=191	=191	=191	=191	=191
4C	.	4e	.	4cc	.	4cc	.
4c	.	4r	.	4r	.	4r	.
2r	.	2r	.	4e	.	4gg	.
.	.	.	.	4e	.	4gg	.
=192	=192	=192	=192	=192	=192	=192	=192
4C	.	4cc	.	[4d#	.	[4ff#	.
4c	.	4cc	.	(12d#yL_	.	(12ff#yL_	.
.	.	.	.	12e)	.	12gg)	.
.	.	.	.	12cJ	.	12eeJ	.
4G	.	[2cc	.	(12d#yL	.	(12ff#yL	.
.	.	.	.	12e)	.	12gg)	.
.	.	.	.	12cJ	.	12eeJ	.
4E	.	.	.	(12d#yL	.	(12ff#yL	.
.	.	.	.	12e)	.	12gg)	.
.	.	.	.	12cJ	.	12eeJ	.
=193	=193	=193	=193	=193	=193	=193	=193
4C	.	4cc]	.	(8.eL	cresc.	(8.ggL	cresc.
.	.	.	.	16cJ)	.	16eeJ)	.
4r	.	4r	.	4e	.	4gg	.
2r	.	2r	.	(8g#L	.	8r	.
.	.	.	.	8a	.	(4ccc	.
.	.	.	.	8f#	.	.	.
.	.	.	.	8gnJ	.	8bb)	.
=194	=194	=194	=194	=194	=194	=194	=194
4r	.	4r	.	8eL	.	(8bb_	.
.	.	.	.	8fn	.	4aa	.
8r	.	8r	.	8d#	.	.	.
(8c#	.	(8b-	.	8eJ)	.	8gg	.
8dL	.	8aL	.	(8f#L	.	8ff#L	.
8B	.	8a-	.	8dd	.	8ffn	.
8cn	.	8g	.	8cc)	.	8ee	.
8F#J)	.	8dJ)	.	8ccJ	.	8aaJ)	.
=195	=195	=195	=195	=195	=195	=195	=195
2G	.	2g	.	(4e	.	(4cc	.
.	.	.	.	4d)	.	4b)	.
4e	.	2r	.	4gg	.	2r	.
4e	.	.	.	4gg	.	.	.
=196	=196	=196	=196	=196	=196	=196	=196
[4d#	.	1r	.	[4ff#	.	4ccc	.
(12d#yL_	.	.	.	(12ff#yL_	.	4ccc	.
12e)	.	.	.	12gg)	.	.	.
12cJ	.	.	.	12eeJ	.	.	.
(12d#yL	.	.	.	(12ff#yL	.	(4.ccc	.
12e)	.	.	.	12gg)	.	.	.
12cJ	.	.	.	12eeJ	.	.	.
(12d#yL	.	.	.	(12ff#yL	.	.	.
12e)	.	.	.	12gg)	.	.	.
.	.	.	.	.	.	8eee)	.
12cJ	.	.	.	12eeJ	.	.	.
=197	=197	=197	=197	=197	=197	=197	=197
(8.eL	.	2r	.	(8.ggL	.	(12bbL	.
.	.	.	.	.	.	12ddd)	.
.	.	.	.	.	.	12cccJ	.
16cJ)	.	.	.	16eeJ)	.	.	.
4e	.	.	.	4gg	.	12bb-L	.
.	.	.	.	.	.	12aa	.
.	.	.	.	.	.	12ggJ	.
4r	.	4r	.	4r	.	12ffL	.
.	.	.	.	.	.	12ee	.
.	.	.	.	.	.	12ddJ	.
4E	.	[4c	.	(4g	.	(12ccL	.
.	.	.	.	.	.	12dd)	.
.	.	.	.	.	.	12b-J	.
=198	=198	=198	=198	=198	=198	=198	=198
4F	.	4c]	.	12fL)	.	12aL	.
.	.	.	.	12aa	.	12ccc	.
.	.	.	.	12ggJ	.	12bbnJ	.
4F	.	(8.ccL	.	12ffL	.	12aaL	.
.	.	.	.	12ee	.	12gg	.
.	.	.	.	12ddJ	.	12ffJ	.
.	.	16aJ)	.	.	.	.	.
4G	.	(4.g	.	(12ccL	.	(12eeL	.
.	.	.	.	12ff)	.	12aa)	.
.	.	.	.	12eeJ	.	12ggJ	.
4G	.	.	.	12ddL	.	12ffL	.
.	.	.	.	12cc	.	12ee	.
.	.	8f)	.	.	.	.	.
.	.	.	.	12bJ	.	12ddJ	.
!!LO:LB
=199	=199	=199	=199	=199	=199	=199	=199
4C	.	12eL	.	4cc	.	4cc	.
.	.	12g	.	.	.	.	.
.	.	12fJ	.	.	.	.	.
(4C	.	12eL	.	4r	.	4r	.
.	.	12d	.	.	.	.	.
.	.	12cJ	.	.	.	.	.
4D	.	12BL	.	4r	.	4r	.
.	.	12A	.	.	.	.	.
.	.	12GJ	.	.	.	.	.
4GG)	.	(12FLT	.	(4B	.	[4g	.
.	.	12E	.	.	.	.	.
.	.	12FJ)	.	.	.	.	.
=200	=200	=200	=200	=200	=200	=200	=200
4r	.	4E	.	4c	.	12gL]	.
.	.	.	.	.	.	12gg	.
.	.	.	.	.	.	12ffJ	.
(4C	.	4r	.	4G)	.	12eeL	.
.	.	.	.	.	.	12dd	.
.	.	.	.	.	.	12ccJ	.
4D	.	4r	.	4r	.	12bL	.
.	.	.	.	.	.	12a	.
.	.	.	.	.	.	12gJ	.
4GG)	.	(4b	.	[4g	.	(12fLT	.
.	.	.	.	.	.	12e	.
.	.	.	.	.	.	12fJ)	.
=201	=201	=201	=201	=201	=201	=201	=201
4r	.	4cc	.	12gL]	.	4e	.
.	.	.	.	12gg	.	.	.
.	.	.	.	12ffJ	.	.	.
(4C	.	4g)	.	12eeL	.	4r	.
.	.	.	.	12dd	.	.	.
.	.	.	.	12ccJ	.	.	.
4D	.	4r	.	12bL	.	4r	.
.	.	.	.	12a	.	.	.
.	.	.	.	12gJ	.	.	.
4GG)	.	(4B	.	(12fLT	.	[4gg	.
.	.	.	.	12e	.	.	.
.	.	.	.	12fJ)	.	.	.
=202	=202	=202	=202	=202	=202	=202	=202
4r	.	4c	.	4e	.	12ggL]	.
.	.	.	.	.	.	12ggg	.
.	.	.	.	.	.	12fffJ	.
(4C	.	4G)	.	4r	.	12eeeL	.
.	.	.	.	.	.	12ddd	.
.	.	.	.	.	.	12cccJ	.
4D	.	4r	.	4r	.	12bbL	.
.	.	.	.	.	.	12aa	.
.	.	.	.	.	.	12ggJ	.
4GG)	.	[4G	.	(4bb	.	(12ffLT	.
.	.	.	.	.	.	12ee	.
.	.	.	.	.	.	12ffJ)	.
!!LO:LB
=203	=203	=203	=203	=203	=203	=203	=203
4r	.	12GL]	.	4ccc	.	4ee	.
.	.	12g	.	.	.	.	.
.	.	12fJ	.	.	.	.	.
(4C	.	12eL	.	4gg)	.	4r	.
.	.	12d	.	.	.	.	.
.	.	12cJ	.	.	.	.	.
4D	.	12BL	.	2r	.	4r	.
.	.	12A	.	.	.	.	.
.	.	12GJ	.	.	.	.	.
4GG)	.	12FL	.	.	.	4bb	.
.	.	12E	.	.	.	.	.
.	.	12DJ	.	.	.	.	.
=204	=204	=204	=204	=204	=204	=204	=204
8EEL	.	8CL	.	8gL	.	(16cccL	.
.	.	.	.	.	.	16bb)	.
8EJ	.	8cJ	.	8GJ	.	16aa	.
.	.	.	.	.	.	16ggJ	.
4E	.	4c	.	4G	.	16ffL	.
.	.	.	.	.	.	16ee	.
.	.	.	.	.	.	16dd	.
.	.	.	.	.	.	16ccJ	.
2r	.	2r	.	2r	.	(16bL	.
.	.	.	.	.	.	16cc)	.
.	.	.	.	.	.	16dd	.
.	.	.	.	.	.	16ccJ	.
.	.	.	.	.	.	(16bL	.
.	.	.	.	.	.	16cc)	.
.	.	.	.	.	.	16ee	.
.	.	.	.	.	.	16ccJ	.
=205	=205	=205	=205	=205	=205	=205	=205
8FFL	.	8CL	.	8aL	.	(16aaL	.
.	.	.	.	.	.	16gg)	.
8FJ	.	8AJ	.	8cJ	.	16ff	.
.	.	.	.	.	.	16eeJ	.
4F	.	4A	.	4c	.	16ddL	.
.	.	.	.	.	.	16cc	.
.	.	.	.	.	.	16b	.
.	.	.	.	.	.	16aJ	.
2r	.	2r	.	2r	.	(16g#L	.
.	.	.	.	.	.	16a)	.
.	.	.	.	.	.	16b	.
.	.	.	.	.	.	16aJ	.
.	.	.	.	.	.	(16g#yL	.
.	.	.	.	.	.	16a)	.
.	.	.	.	.	.	16cc	.
.	.	.	.	.	.	16aJ	.
!!LO:LB
=206	=206	=206	=206	=206	=206	=206	=206
8GGL	.	8DL	.	8bL	.	(16ffL	.
.	.	.	.	.	.	16ee)	.
8GJ	.	8BJ	.	8dJ	.	16dd	.
.	.	.	.	.	.	16ccJ	.
4G	.	4B	.	4d	.	16bL	.
.	.	.	.	.	.	16a	.
.	.	.	.	.	.	16gn	.
.	.	.	.	.	.	16fJ	.
2r	.	2r	.	2r	.	(16eL	.
.	.	.	.	.	.	16f)	.
.	.	.	.	.	.	16g	.
.	.	.	.	.	.	16fJ	.
.	.	.	.	.	.	(16eL	.
.	.	.	.	.	.	16f)	.
.	.	.	.	.	.	16a	.
.	.	.	.	.	.	16fJ	.
=207	=207	=207	=207	=207	=207	=207	=207
4C	.	4G	.	4c	.	(16eL	.
.	.	.	.	.	.	16g)	.
.	.	.	.	.	.	16f	.
.	.	.	.	.	.	16eJ	.
4r	.	4r	.	4r	.	16fL	.
.	.	.	.	.	.	16g	.
.	.	.	.	.	.	16a	.
.	.	.	.	.	.	16bJ	.
2r	.	2r	.	2r	.	(16ccL	.
.	.	.	.	.	.	16b)	.
.	.	.	.	.	.	16cc	.
.	.	.	.	.	.	16ddJ	.
.	.	.	.	.	.	16eeL	.
.	.	.	.	.	.	16ff	.
.	.	.	.	.	.	16gg	.
.	.	.	.	.	.	16aaJ	.
=208	=208	=208	=208	=208	=208	=208	=208
8EEL	.	8c#L	.	16GL	.	2bb-	.
.	.	.	.	(16g	.	.	.
8E	.	8c#y	.	16f#	.	.	.
.	.	.	.	16gJ	.	.	.
8E	.	8c#y	.	16aL	.	.	.
.	.	.	.	16g	.	.	.
8EJ	.	8c#yJ	.	16f#y	.	.	.
.	.	.	.	16gJ)	.	.	.
8EL	.	8gL	.	16gL	.	2c#	.
.	.	.	.	(16b-	.	.	.
8E	.	8g	.	16a	.	.	.
.	.	.	.	16b-yJ	.	.	.
8E	.	8g	.	16ccL	.	.	.
.	.	.	.	16b-y	.	.	.
8EJ	.	8gJ	.	16a	.	.	.
.	.	.	.	16b-yJ)	.	.	.
=209	=209	=209	=209	=209	=209	=209	=209
8FFL	.	8fL	.	16dL	.	2d	.
.	.	.	.	(16a	.	.	.
8F	.	8f	.	16g	.	.	.
.	.	.	.	16aJ	.	.	.
8F	.	8f	.	16b-L	.	.	.
.	.	.	.	16a	.	.	.
8FJ	.	8fJ	.	16g	.	.	.
.	.	.	.	16aJ)	.	.	.
8FF#L	.	8e-L	.	16aL	.	2aa	.
.	.	.	.	(16cc	.	.	.
8F#	.	8e-y	.	16bn	.	.	.
.	.	.	.	16ccJ	.	.	.
8F#y	.	8e-y	.	16ddL	.	.	.
.	.	.	.	16cc	.	.	.
8F#yJ	.	8e-yJ	.	16b	.	.	.
.	.	.	.	16ccJ)	.	.	.
=210	=210	=210	=210	=210	=210	=210	=210
8GGL	.	8enL	.	16gL	.	2gg	.
.	.	.	.	(16cc	.	.	.
8G	.	8e	.	16b	.	.	.
.	.	.	.	16ccJ	.	.	.
8G	.	8e	.	16ddL	.	.	.
.	.	.	.	16cc	.	.	.
8GJ	.	8eJ	.	16b	.	.	.
.	.	.	.	16ccJ)	.	.	.
8GGL	.	8fL	.	16GL	.	(4.bnT	.
.	.	.	.	(16d	.	.	.
8G	.	8f	.	16c	.	.	.
.	.	.	.	16dJ	.	.	.
8G	.	8f	.	16eL	.	.	.
.	.	.	.	16d	.	.	.
8GJ	.	8fJ	.	16c	.	16aL	.
.	.	.	.	16dJ)	.	16bJ)	.
=211	=211	=211	=211	=211	=211	=211	=211
8CCL	.	4e	.	[2c	.	4cc	.
8C	.	.	.	.	.	.	.
8C	.	(4G	.	.	.	4r	.
8CJ	.	.	.	.	.	.	.
8CL	.	4E	.	8cL]	.	2r	.
8C	.	.	.	(8c	.	.	.
8C	.	4C)	.	8d	.	.	.
8CJ	.	.	.	8eJ)	.	.	.
=212	=212	=212	=212	=212	=212	=212	=212
8CL	.	(4B	.	(4g	.	[2g	.
8C	.	.	.	.	.	.	.
8C	.	4d	.	4f)	.	.	.
8CJ	.	.	.	.	.	.	.
8CL	.	4B	.	2r	.	8gL]	.
8C	.	.	.	.	.	(8g	.
8C	.	4G)	.	.	.	8a	.
8CJ	.	.	.	.	.	8bJ)	.
!!LO:LB
=213	=213	=213	=213	=213	=213	=213	=213
8CL	.	(4e	.	8r	.	(4dd	.
8C	.	.	.	(8bL	.	.	.
8C	.	4g	.	8cc	.	4cc)	.
8CJ	.	.	.	8bJ	.	.	.
8CL	.	4e	.	8ccL	.	2r	.
8C	.	.	.	8cc#	.	.	.
8C	.	4c)	.	8dd	.	.	.
8CJ	.	.	.	8eeJ)	.	.	.
=214	=214	=214	=214	=214	=214	=214	=214
8CL	.	(4b	.	1ff	.	8r	.
8C	.	.	.	.	.	(8ff#L	.
8C	.	4dd	.	.	.	8gg	.
8CJ	.	.	.	.	.	8ff#yJ	.
8CL	.	4b	.	.	.	8ggL	.
8C	.	.	.	.	.	8gg#	.
8C	.	4g)	.	.	.	8aa	.
8CJ	.	.	.	.	.	8bbJ)	.
=215	=215	=215	=215	=215	=215	=215	=215
8C	.	[2G	.	(8eeL	.	4ccc	.
8r	.	.	.	8gg	.	.	.
8E	.	.	.	8ee	.	4r	.
8r	.	.	.	8ccJ	.	.	.
8G	.	8GL]	.	8bL	.	2r	.
8r	.	(8G	.	8g	.	.	.
8GG	.	8A	.	8f	.	.	.
8r	.	8BJ)	.	8dJ)	.	.	.
=216	=216	=216	=216	=216	=216	=216	=216
8C	.	(4d	.	(8e	.	[2gg	.
8r	.	.	.	4g	.	.	.
8E	.	4c)	.	.	.	.	.
8r	.	.	.	8cc)	.	.	.
8G	.	2r	.	(8bL	.	8ggL]	.
8r	.	.	.	8a	.	(8ff	.
8GG	.	.	.	8g	.	8ee	.
8r	.	.	.	8fJ)	.	8ddJ)	.
=217	=217	=217	=217	=217	=217	=217	=217
8C	.	[2g	.	(8d#L	.	(4b	.
8r	.	.	.	8e)	.	.	.
*clefC4	*	*	*	*	*	*	*
8e	.	.	.	(8g	.	4cc)	.
8r	.	.	.	8ccJ	.	.	.
8g	.	8gL]	.	8bL	.	2r	.
8r	.	(8g	.	8g	.	.	.
8G	.	8a	.	8f	.	.	.
8r	.	8bJ)	.	8dnJ)	.	.	.
!!LO:LB
=218	=218	=218	=218	=218	=218	=218	=218
.	.	.	.	.	.	(<8qgg	.
8c	.	(4dd	.	(8eL	.	2ggg)	.
8r	.	.	.	8g)	.	.	.
8e	.	4cc)	.	(8gg	.	.	.
8r	.	.	.	8cccJ	.	.	.
8g	.	2r	.	8bbL	.	8gggL]	.
8r	.	.	.	8aa	.	(8fff	.
8G	.	.	.	8gg	.	8eee	.
8r	.	.	.	8ffJ)	.	8dddJ)	.
*clefF4	*	*	*	*	*	*	*
=219	=219	=219	=219	=219	=219	=219	=219
[2C	cre	8r	.	(8dd#L	.	(8bbL	.
.	.	8gL	.	8ee)	.	8ccc)	.
.	.	8g	.	8ee'	.	8ccc'	.
.	.	8gJ	.	8ee'J	.	8ccc'J	.
8CL]	.	4g	.	4ee	.	4ccc	.
(8C	.	.	.	.	.	.	.
8D	.	4r	.	4r	.	4r	.
8EJ)	.	.	.	.	.	.	.
=220	=220	=220	=220	=220	=220	=220	=220
(4G	scen	8r	.	8r	cre	8r	cre
.	.	8aL	.	(8dL	.	(8ccL	.
4F)	.	8a	.	8dd)	.	8ccc)	.
.	.	8aJ	.	8ddJ	.	8cccJ	.
8FL]	.	4a	.	4dd	.	4ccc	.
(8D	.	.	.	.	.	.	.
8E	.	4r	.	4r	.	4r	.
8FJ)	.	.	.	.	.	.	.
=221	=221	=221	=221	=221	=221	=221	=221
(4A	do	8r	.	8r	scen	8r	scen
.	.	8b-L	.	(8eL	.	(8ccL	.
4G)	.	8b-y	.	8ee)	.	8ccc)	.
.	.	8b-yJ	.	8eeJ	.	8cccJ	.
8GL]	.	4b-y	.	4ee	.	4ccc	.
(8E	.	.	.	.	.	.	.
8F	.	4r	.	4r	.	4r	.
8GJ)	.	.	.	.	.	.	.
=222	=222	=222	=222	=222	=222	=222	=222
(4B-	.	8r	.	8r	do	8r	do
.	.	8ccL	.	(8fL	.	(8ccL	.
4A)	.	8cc	.	8ff)	.	8ccc)	.
.	.	8ccJ	.	8ffJ	.	8cccJ	.
8AL]	.	4cc	.	4ff	.	4ccc	.
(8F	.	.	.	.	.	.	.
8G	.	4r	.	4r	.	4r	.
8AJ)	.	.	.	.	.	.	.
=223	=223	=223	=223	=223	=223	=223	=223
[2c	.	[2ee-	.	[2ff#	.	[2aa	.
(8cL_	.	(8ee-yL_	.	(8ff#yL_	.	(8aaL_	.
8B-	.	8dd	.	8gg	.	8bb-	.
8A	.	8cc	.	8aa	.	8ccc	.
8GJ)	.	8b-J)	.	8bb-J)	.	8dddJ)	.
!!LO:LB
=224	=224	=224	=224	=224	=224	=224	=224
(2d-	.	[2b	.	[2g	.	[2ff	.
4c)	.	4b-y]	.	4g]	.	(8ffL_	.
.	.	.	.	.	.	8ee	.
4r	.	4r	.	4r	.	8bb-	.
.	.	.	.	.	.	8ggJ)	.
=225	=225	=225	=225	=225	=225	=225	=225
1r	.	4r	.	1r	.	(8ffL	.
.	.	.	.	.	.	8ee	.
.	.	(8gL	.	.	.	8gg	.
.	.	8eJ	.	.	.	8eeJ	.
.	.	8dL	.	.	.	8ddL	.
.	.	8c	.	.	.	8cc	.
.	.	8d	.	.	.	8dd	.
.	.	8B-J)	.	.	.	8b-J)	.
=226	=226	=226	=226	=226	=226	=226	=226
1r	.	(8AL	.	1r	.	(8aL	.
.	.	8G	.	.	.	8g	.
.	.	8F#	.	.	.	8f#	.
.	.	8GJ	.	.	.	8gJ	.
.	.	8A-L	.	.	.	8a-L	.
.	.	8An	.	.	.	8an	.
.	.	8B-	.	.	.	8b-	.
.	.	8BnJ)	.	.	.	8bnJ)	.
=227:|!	=227:|!	=227:|!	=227:|!	=227:|!	=227:|!	=227:|!	=227:|!
8B-L	.	4c	.	(8eL	.	[2cc	.
8B-y	.	.	.	8f	.	.	.
8B-y	.	4r	.	8e	.	.	.
8B-yJ	.	.	.	8fJ	.	.	.
8B-yL	.	2r	.	4e)	.	8ccL]	.
8B-y	.	.	.	.	.	(8cc#	.
8B-y	.	.	.	4r	.	8dd	.
8B-yJ	.	.	.	.	.	8eeJ)	.
=228	=228	=228	=228	=228	=228	=228	=228
8AL	.	[2c	.	8r	.	(4gg	.
8A	.	.	.	(8ccL	.	.	.
8A	.	.	.	8a	.	4ff)	.
8AJ	.	.	.	8fJ)	.	.	.
8B-L	.	8cL]	.	(4e	.	2r	.
8B-y	.	(8c#	.	.	.	.	.
8B-y	.	8d	.	4g)	.	.	.
8B-yJ	.	8eJ)	.	.	.	.	.
=229	=229	=229	=229	=229	=229	=229	=229
8AL	.	(4g	.	8r	.	[2ccn	.
8A	.	.	.	(8ccL	.	.	.
8A	.	4f)	.	8a	.	.	.
8AJ	.	.	.	8fJ)	.	.	.
8B-L	.	[2cn	.	(4e	.	8ccL]	.
8B-y	.	.	.	.	.	(8cc#	.
8B-y	.	.	.	4g)	.	8dd	.
8B-yJ	.	.	.	.	.	8eeJ)	.
=230	=230	=230	=230	=230	=230	=230	=230
8AL	cre	(8cL_	cre	8r	cre	(8ggL	cre
8A	.	8c#	.	(8fL	.	8ffJ)	.
8B-	.	8d	.	8a	.	(4.ccn	.
8B-yJ	.	8eJ	.	8gJ	.	.	.
8AL	.	8gL	.	8eL	.	.	.
8A	.	8fJ)	.	8f	.	8cc#L	.
8B-y	.	[4cn	.	8a	.	8dd	.
8B-yJ	.	.	.	8gJ)	.	8eeJ)	.
=231	=231	=231	=231	=231	=231	=231	=231
8AL	scendo	(8cL_	scendo	(8eL	scendo	(8ggL	scendo
8A	.	8c#	.	8f	.	8ffJ)	.
8B-	.	8d	.	8a	.	(4.ccn	.
8B-yJ	.	8eJ	.	8gJ	.	.	.
8AL	.	8gL	.	8eL	.	.	.
8A	.	8fJ)	.	8f	.	8cc#L	.
8B-y	.	[4cn	.	8a	.	8dd	.
8B-yJ	.	.	.	8gJ)	.	8eeJ)	.
=232	=232	=232	=232	=232	=232	=232	=232
8AL	.	8cL_	.	(8eL	.	(8ggL	.
8A	.	8c	.	8fJ)	.	8ffJ)	.
8A	.	(8g	.	8r	.	8r	.
8AJ	.	8fJ)	.	8c	.	8cc	.
8EL	.	8r	.	(8ccL	.	(8aaL	.
8E	.	8c	.	8b-J)	.	8ggJ)	.
8E	.	(8aL	.	8r	.	8r	.
8EJ	.	8gJ)	.	8b-y	.	8cc	.
=233	=233	=233	=233	=233	=233	=233	=233
8FL	.	8r	.	(8ggL	.	(8bb-L	.
8F	.	8c	.	8ffJ)	.	8aaJ)	.
8F	.	(8b-L	.	8r	.	8r	.
8FJ	.	8aJ)	.	8cc	.	8aa	.
8F#L	.	8r	.	(8dd#L	.	(8bbnL	.
8F#y	.	8a	.	8eeJ)	.	8cccJ)	.
8F#y	.	(8bnL	.	8r	.	8r	.
8F#yJ	.	8ccJ)	.	8ee	.	8ccc	.
!!LO:LB
=234	=234	=234	=234	=234	=234	=234	=234
8GL	.	8r	.	(8eeL	.	(8cccL	.
8G	.	8cc	.	8eJ)	.	8ggJ)	.
8G	.	(8ccL	.	8r	.	8r	.
8GJ	.	8gJ)	.	8cc	.	8ee	.
8GL	.	8r	.	(8eeL	.	(8ggL	.
8G	.	8B	.	8ddJ)	.	8ffJ)	.
8G	.	(8gL	.	8r	.	8r	.
8GJ	.	8fJ)	.	8bn	.	8dd	.
=235	=235	=235	=235	=235	=235	=235	=235
8C'L	.	4e	.	8cc'L	.	4cc	.
8E'	.	.	.	8g'	.	.	.
8G'	.	4r	.	8cc'	.	4r	.
8c'J	.	.	.	8ee'J	.	.	.
(4e	.	8r	.	(4gg	.	8r	.
.	.	8e'L	.	.	.	8gg'L	.
4d)	.	8g'	.	4ff)	.	8bb'	.
.	.	8b'J	.	.	.	8ddd'J	.
=236	=236	=236	=236	=236	=236	=236	=236
8r	.	(8ddL	.	16GL	.	(4.fff	.
.	.	.	.	16g	.	.	.
8G'L	.	8bJ)	.	16g	.	.	.
.	.	.	.	16gJ	.	.	.
8d'	.	(4.g	.	16gL	.	.	.
.	.	.	.	16g	.	.	.
8B'J	.	.	.	16g	.	8ddd)	.
.	.	.	.	16gJ	.	.	.
8r	.	.	.	16cL	.	(4.eee	.
.	.	.	.	16cc	.	.	.
8C'L	.	8e)	.	16cc	.	.	.
.	.	.	.	16ccJ	.	.	.
8G'	.	4c	.	16ccL	.	.	.
.	.	.	.	16cc	.	.	.
8E'J	.	.	.	16cc	.	8ccc)	.
.	.	.	.	16ccJ	.	.	.
=237	=237	=237	=237	=237	=237	=237	=237
8FL	.	16fL	.	16ccL	.	(4.aa	.
.	.	16f	.	16cc	.	.	.
8E	.	16f	.	16cc	.	.	.
.	.	16fJ	.	16ccJ	.	.	.
8F	.	16aL	.	16ffL	.	.	.
.	.	16a	.	16ff	.	.	.
8DJ	.	16a	.	16ff	.	8ddd)	.
.	.	16aJ	.	16ffJ	.	.	.
8GL	.	16gL	.	16eeL	.	4ccc	.
.	.	16g	.	16ee	.	.	.
8F	.	16g	.	16ee	.	.	.
.	.	16gJ	.	16eeJ	.	.	.
8G	.	16fL	.	16ddL	.	(8.bbLT	.
.	.	16f	.	16dd	.	.	.
8GGJ	.	16f	.	16dd	.	.	.
.	.	16fJ	.	16ddJ	.	32aa	.
.	.	.	.	.	.	32bbJ)	.
!!LO:LB
=238	=238	=238	=238	=238	=238	=238	=238
8C'L	.	4e	.	8ccL	.	4ccc	.
8E'	.	.	.	8g'	.	.	.
8G'	.	4r	.	8cc'	.	4r	.
8c'J	.	.	.	8ee'J	.	.	.
(4e	.	8r	.	(4gg	.	8r	.
.	.	8e'L	.	.	.	8gg'L	.
4d)	.	8g'	.	4ff)	.	8bb'	.
.	.	8b'J	.	.	.	8ddd'J	.
=239	=239	=239	=239	=239	=239	=239	=239
8r	.	(8ddL	.	16GL	.	8fff	.
.	.	.	.	16g	.	.	.
8GL	.	8bJ)	.	16g	.	(4fff	.
.	.	.	.	16gJ	.	.	.
8d'	.	(4.g	.	16gL	.	.	.
.	.	.	.	16g	.	.	.
8B'J	.	.	.	16g	.	8ddd)	.
.	.	.	.	16gJ	.	.	.
8r	.	.	.	16cL	.	8eee	.
.	.	.	.	16cc	.	.	.
8C'L	.	8e)	.	16cc	.	(4eee	.
.	.	.	.	16ccJ	.	.	.
8G'	.	4c	.	16ccL	.	.	.
.	.	.	.	16cc	.	.	.
8E'J	.	.	.	16cc	.	8ccc)	.
.	.	.	.	16ccJ	.	.	.
=240	=240	=240	=240	=240	=240	=240	=240
8FL	.	16fL	.	16ccL	.	8aa	.
.	.	16f	.	16cc	.	.	.
8E	.	16f	.	16cc	.	(4aa	.
.	.	16fJ	.	16ccJ	.	.	.
8F	.	16aL	.	16ffL	.	.	.
.	.	16a	.	16ff	.	.	.
8DJ	.	16a	.	16ff	.	8ddd)	.
.	.	16aJ	.	16ffJ	.	.	.
8GL	.	16gL	.	16eeL	.	4ccc	.
.	.	16g	.	16ee	.	.	.
8F	.	16g	.	16ee	.	.	.
.	.	16gJ	.	16eeJ	.	.	.
8G	.	16fL	.	16ddL	.	(8.bbLT	.
.	.	16f	.	16dd	.	.	.
8GGJ	.	16f	.	16dd	.	.	.
.	.	16fJ	.	16ddJ	.	32aa	.
.	.	.	.	.	.	32bbJ)	.
=241	=241	=241	=241	=241	=241	=241	=241
8CL	.	(2e	.	(2cc	.	4ccc	.
8C	.	.	.	.	.	.	.
8C	.	.	.	.	.	4r	.
8CJ	.	.	.	.	.	.	.
8CL	.	2f	.	2aa	.	2r	.
8C	.	.	.	.	.	.	.
8C	.	.	.	.	.	.	.
8CJ	.	.	.	.	.	.	.
!!LO:LB
=242	=242	=242	=242	=242	=242	=242	=242
8CL	.	2e	.	2gg	.	[2g	.
8C	.	.	.	.	.	.	.
8C	.	.	.	.	.	.	.
8CJ	.	.	.	.	.	.	.
8CL	.	2d)	.	2ff)	.	8gL]	.
8C	.	.	.	.	.	(8g#	.
8C	.	.	.	.	.	8a	.
8CJ	.	.	.	.	.	8bJ)	.
=243	=243	=243	=243	=243	=243	=243	=243
8CL	.	(2c	.	(2ee	.	(8ddL	.
8C	.	.	.	.	.	8ccJ)	.
8C	.	.	.	.	.	4r	.
8CJ	.	.	.	.	.	.	.
8CL	.	2a	.	2ff	.	2r	.
8C	.	.	.	.	.	.	.
8C	.	.	.	.	.	.	.
8CJ	.	.	.	.	.	.	.
=244	=244	=244	=244	=244	=244	=244	=244
8CL	.	2g	.	2ee	.	[2gg	.
8C	.	.	.	.	.	.	.
8C	.	.	.	.	.	.	.
8CJ	.	.	.	.	.	.	.
8CL	.	2f)	.	2dd)	.	8ggL]	.
8C	.	.	.	.	.	(8gg#	.
8C	.	.	.	.	.	8aa	.
8CJ	.	.	.	.	.	8bbJ)	.
=245	=245	=245	=245	=245	=245	=245	=245
4C	.	4e	.	4cc	.	(8dddL	.
.	.	.	.	.	.	8cccJ)	.
4GG	.	4G	.	4e	.	4ccc	.
4EE	.	4G	.	4e	.	4ccc	.
4GG	.	4G	.	4e	.	4ccc	.
=246	=246	=246	=246	=246	=246	=246	=246
4CC	.	4G	.	4e	.	4ccc	.
4r	.	4r	.	4r	.	4r	.
2r	.	2r	.	2r	.	2r	.
==	==	==	==	==	==	==	==
*-	*-	*-	*-	*-	*-	*-	*-
!!!RDF**kern: < = below
